Practicas-Ampliacion-Robotica/Lab-3-Inverse-Dynamics-Control/experiments/experiment3.2/exp_3_22.csv
__time,/desired_joint_accelerations/data[0],/desired_joint_accelerations/data[1],/desired_joint_accelerations/layout/data_offset,/joint_accelerations/data[0],/joint_accelerations/data[1],/joint_accelerations/layout/data_offset,/joint_states/header/stamp,/joint_states/joint_1/position,/joint_states/joint_1/velocity,/joint_states/joint_2/position,/joint_states/joint_2/velocity
1781155884.323699,,,,0.000000000,0.000000000,0.000000000,,,,,
1781155884.324931,,,,0.000000000,0.000000000,0.000000000,,,,,
1781155884.325654,,,,0.000000000,0.000000000,0.000000000,,,,,
1781155884.325745,,,,,,,1781155884.325555325,0.785398000,0.000000000,-0.785398000,0.000000000
1781155884.326524,,,,0.000000000,0.000000000,0.000000000,,,,,
1781155884.326802,,,,,,,1781155884.326503038,0.785398000,0.000000000,-0.785398000,0.000000000
1781155884.327523,,,,0.000000000,0.000000000,0.000000000,,,,,
1781155884.327552,,,,,,,1781155884.327306747,0.785398000,0.000000000,-0.785398000,0.000000000
1781155884.328300,,,,0.000000000,0.000000000,0.000000000,,,,,
1781155884.328367,,,,,,,1781155884.328229904,0.785398000,0.000000000,-0.785398000,0.000000000
1781155884.329072,,,,0.000000000,0.000000000,0.000000000,,,,,
1781155884.329162,,,,,,,1781155884.329036236,0.785398000,0.000000000,-0.785398000,0.000000000
1781155884.330040,,,,0.000000000,0.000000000,0.000000000,,,,,
1781155884.330054,,,,,,,1781155884.329932451,0.785398000,0.000000000,-0.785398000,0.000000000
1781155884.330965,,,,0.000000000,0.000000000,0.000000000,,,,,
1781155884.331033,,,,,,,1781155884.330906630,0.785398000,0.000000000,-0.785398000,0.000000000
1781155884.331887,,,,0.000000000,0.000000000,0.000000000,,,,,
1781155884.332006,,,,,,,1781155884.331856251,0.785398000,0.000000000,-0.785398000,0.000000000
1781155884.332770,,,,0.000000000,0.000000000,0.000000000,,,,,
1781155884.332801,,,,,,,1781155884.332729578,0.785398000,0.000000000,-0.785398000,0.000000000
1781155884.333683,,,,0.000000000,0.000000000,0.000000000,,,,,
1781155884.333730,,,,,,,1781155884.333575249,0.785398000,0.000000000,-0.785398000,0.000000000
1781155884.334613,,,,0.000000000,0.000000000,0.000000000,,,,,
1781155884.334659,,,,,,,1781155884.334521770,0.785398000,0.000000000,-0.785398000,0.000000000
1781155884.335577,,,,0.000000000,0.000000000,0.000000000,,,,,
1781155884.335646,,,,,,,1781155884.335474968,0.785398000,0.000000000,-0.785398000,0.000000000
1781155884.336531,,,,0.000000000,0.000000000,0.000000000,,,,,
1781155884.336644,,,,,,,1781155884.336461544,0.785398000,0.000000000,-0.785398000,0.000000000
1781155884.337271,,,,0.000000000,0.000000000,0.000000000,,,,,
1781155884.337354,,,,,,,1781155884.337257624,0.785398000,0.000000000,-0.785398000,0.000000000
1781155884.338212,,,,0.000000000,0.000000000,0.000000000,,,,,
1781155884.338296,,,,,,,1781155884.338171959,0.785398000,0.000000000,-0.785398000,0.000000000
1781155884.339124,,,,0.000000000,0.000000000,0.000000000,,,,,
1781155884.339153,,,,,,,1781155884.339084864,0.785398000,0.000000000,-0.785398000,0.000000000
1781155884.340183,,,,0.000000000,0.000000000,0.000000000,,,,,
1781155884.340204,,,,,,,1781155884.340058327,0.785398000,0.000000000,-0.785398000,0.000000000
1781155884.340959,,,,0.000000000,0.000000000,0.000000000,,,,,
1781155884.341146,,,,,,,1781155884.340933084,0.785398000,0.000000000,-0.785398000,0.000000000
1781155884.342069,,,,0.000000000,0.000000000,0.000000000,,,,,
1781155884.342117,,,,,,,1781155884.341989517,0.785398000,0.000000000,-0.785398000,0.000000000
1781155884.342985,,,,0.000000000,0.000000000,0.000000000,,,,,
1781155884.343008,,,,,,,1781155884.342856407,0.785398000,0.000000000,-0.785398000,0.000000000
1781155884.343794,,,,0.000000000,0.000000000,0.000000000,,,,,
1781155884.343831,,,,,,,1781155884.343730211,0.785398000,0.000000000,-0.785398000,0.000000000
1781155884.344804,,,,0.000000000,0.000000000,0.000000000,,,,,
1781155884.344903,,,,,,,1781155884.344747066,0.785398000,0.000000000,-0.785398000,0.000000000
1781155884.345566,,,,0.000000000,0.000000000,0.000000000,,,,,
1781155884.345618,,,,,,,1781155884.345514297,0.785398000,0.000000000,-0.785398000,0.000000000
1781155884.346573,,,,0.000000000,0.000000000,0.000000000,,,,,
1781155884.346593,,,,,,,1781155884.346445322,0.785398000,0.000000000,-0.785398000,0.000000000
1781155884.347430,,,,0.000000000,0.000000000,0.000000000,,,,,
1781155884.347510,,,,,,,1781155884.347396374,0.785398000,0.000000000,-0.785398000,0.000000000
1781155884.348324,,,,0.000000000,0.000000000,0.000000000,,,,,
1781155884.348412,,,,,,,1781155884.348272800,0.785398000,0.000000000,-0.785398000,0.000000000
1781155884.349436,,,,0.000000000,0.000000000,0.000000000,,,,,
1781155884.349464,,,,,,,1781155884.349356174,0.785398000,0.000000000,-0.785398000,0.000000000
1781155884.350325,,,,0.000000000,0.000000000,0.000000000,,,,,
1781155884.350383,,,,,,,1781155884.350229740,0.785398000,0.000000000,-0.785398000,0.000000000
1781155884.351109,,,,0.000000000,0.000000000,0.000000000,,,,,
1781155884.351194,,,,,,,1781155884.351057291,0.785398000,0.000000000,-0.785398000,0.000000000
1781155884.352058,,,,0.000000000,0.000000000,0.000000000,,,,,
1781155884.352130,,,,,,,1781155884.352001190,0.785398000,0.000000000,-0.785398000,0.000000000
1781155884.352954,,,,0.000000000,0.000000000,0.000000000,,,,,
1781155884.353053,,,,,,,1781155884.352912426,0.785398000,0.000000000,-0.785398000,0.000000000
1781155884.353770,,,,0.000000000,0.000000000,0.000000000,,,,,
1781155884.353879,,,,,,,1781155884.353763342,0.785398000,0.000000000,-0.785398000,0.000000000
1781155884.354763,,,,0.000000000,0.000000000,0.000000000,,,,,
1781155884.354819,,,,,,,1781155884.354694605,0.785398000,0.000000000,-0.785398000,0.000000000
1781155884.355645,,,,0.000000000,0.000000000,0.000000000,,,,,
1781155884.355701,,,,,,,1781155884.355595112,0.785398000,0.000000000,-0.785398000,0.000000000
1781155884.356635,,,,0.000000000,0.000000000,0.000000000,,,,,
1781155884.356688,,,,,,,1781155884.356587172,0.785398000,0.000000000,-0.785398000,0.000000000
1781155884.357540,,,,0.000000000,0.000000000,0.000000000,,,,,
1781155884.357609,,,,,,,1781155884.357470274,0.785398000,0.000000000,-0.785398000,0.000000000
1781155884.358460,,,,0.000000000,0.000000000,0.000000000,,,,,
1781155884.358498,,,,,,,1781155884.358381033,0.785398000,0.000000000,-0.785398000,0.000000000
1781155884.359352,,,,0.000000000,0.000000000,0.000000000,,,,,
1781155884.359389,,,,,,,1781155884.359270811,0.785398000,0.000000000,-0.785398000,0.000000000
1781155884.360262,,,,0.000000000,0.000000000,0.000000000,,,,,
1781155884.360320,,,,,,,1781155884.360201597,0.785398000,0.000000000,-0.785398000,0.000000000
1781155884.361285,,,,0.000000000,0.000000000,0.000000000,,,,,
1781155884.361322,,,,,,,1781155884.361213923,0.785398000,0.000000000,-0.785398000,0.000000000
1781155884.362093,,,,0.000000000,0.000000000,0.000000000,,,,,
1781155884.362217,,,,,,,1781155884.362094164,0.785398000,0.000000000,-0.785398000,0.000000000
1781155884.363169,,,,0.000000000,0.000000000,0.000000000,,,,,
1781155884.363194,,,,,,,1781155884.363018513,0.785398000,0.000000000,-0.785398000,0.000000000
1781155884.363986,,,,0.000000000,0.000000000,0.000000000,,,,,
1781155884.364023,,,,,,,1781155884.363880873,0.785398000,0.000000000,-0.785398000,0.000000000
1781155884.364803,,,,0.000000000,0.000000000,0.000000000,,,,,
1781155884.364892,,,,,,,1781155884.364776850,0.785398000,0.000000000,-0.785398000,0.000000000
1781155884.365783,,,,0.000000000,0.000000000,0.000000000,,,,,
1781155884.365840,,,,,,,1781155884.365724802,0.785398000,0.000000000,-0.785398000,0.000000000
1781155884.366691,,,,0.000000000,0.000000000,0.000000000,,,,,
1781155884.366755,,,,,,,1781155884.366649866,0.785398000,0.000000000,-0.785398000,0.000000000
1781155884.367653,,,,0.000000000,0.000000000,0.000000000,,,,,
1781155884.367707,,,,,,,1781155884.367595673,0.785398000,0.000000000,-0.785398000,0.000000000
1781155884.368465,,,,0.000000000,0.000000000,0.000000000,,,,,
1781155884.368587,,,,,,,1781155884.368430853,0.785398000,0.000000000,-0.785398000,0.000000000
1781155884.369497,,,,0.000000000,0.000000000,0.000000000,,,,,
1781155884.369551,,,,,,,1781155884.369442225,0.785398000,0.000000000,-0.785398000,0.000000000
1781155884.370288,,,,0.000000000,0.000000000,0.000000000,,,,,
1781155884.370317,,,,,,,1781155884.370251656,0.785398000,0.000000000,-0.785398000,0.000000000
1781155884.371205,,,,0.000000000,0.000000000,0.000000000,,,,,
1781155884.371313,,,,,,,1781155884.371170044,0.785398000,0.000000000,-0.785398000,0.000000000
1781155884.372193,,,,0.000000000,0.000000000,0.000000000,,,,,
1781155884.372283,,,,,,,1781155884.372152328,0.785398000,0.000000000,-0.785398000,0.000000000
1781155884.373063,,,,0.000000000,0.000000000,0.000000000,,,,,
1781155884.373147,,,,,,,1781155884.373025417,0.785398000,0.000000000,-0.785398000,0.000000000
1781155884.373978,,,,0.000000000,0.000000000,0.000000000,,,,,
1781155884.374129,,,,,,,1781155884.373935461,0.785398000,0.000000000,-0.785398000,0.000000000
1781155884.375034,,,,0.000000000,0.000000000,0.000000000,,,,,
1781155884.375152,,,,,,,1781155884.375000000,0.785398000,0.000000000,-0.785398000,0.000000000
1781155884.375858,,,,0.000000000,0.000000000,0.000000000,,,,,
1781155884.375888,,,,,,,1781155884.375814676,0.785398000,0.000000000,-0.785398000,0.000000000
1781155884.376709,,,,0.000000000,0.000000000,0.000000000,,,,,
1781155884.376739,,,,,,,1781155884.376668692,0.785398000,0.000000000,-0.785398000,0.000000000
1781155884.377675,,,,0.000000000,0.000000000,0.000000000,,,,,
1781155884.377735,,,,,,,1781155884.377588511,0.785398000,0.000000000,-0.785398000,0.000000000
1781155884.378549,,,,0.000000000,0.000000000,0.000000000,,,,,
1781155884.378642,,,,,,,1781155884.378519773,0.785398000,0.000000000,-0.785398000,0.000000000
1781155884.379478,,,,0.000000000,0.000000000,0.000000000,,,,,
1781155884.379595,,,,,,,1781155884.379437208,0.785398000,0.000000000,-0.785398000,0.000000000
1781155884.380497,,,,0.000000000,0.000000000,0.000000000,,,,,
1781155884.380561,,,,,,,1781155884.380419493,0.785398000,0.000000000,-0.785398000,0.000000000
1781155884.381454,,,,0.000000000,0.000000000,0.000000000,,,,,
1781155884.381491,,,,,,,1781155884.381336689,0.785398000,0.000000000,-0.785398000,0.000000000
1781155884.382238,,,,0.000000000,0.000000000,0.000000000,,,,,
1781155884.382278,,,,,,,1781155884.382191896,0.785398000,0.000000000,-0.785398000,0.000000000
1781155884.383285,,,,0.000000000,0.000000000,0.000000000,,,,,
1781155884.383305,,,,,,,1781155884.383173704,0.785398000,0.000000000,-0.785398000,0.000000000
1781155884.384137,,,,0.000000000,0.000000000,0.000000000,,,,,
1781155884.384224,,,,,,,1781155884.384096384,0.785398000,0.000000000,-0.785398000,0.000000000
1781155884.385040,,,,0.000000000,0.000000000,0.000000000,,,,,
1781155884.385135,,,,,,,1781155884.384981632,0.785398000,0.000000000,-0.785398000,0.000000000
1781155884.385989,,,,0.000000000,0.000000000,0.000000000,,,,,
1781155884.386044,,,,,,,1781155884.385937214,0.785398000,0.000000000,-0.785398000,0.000000000
1781155884.386863,,,,0.000000000,0.000000000,0.000000000,,,,,
1781155884.386920,,,,,,,1781155884.386806726,0.785398000,0.000000000,-0.785398000,0.000000000
1781155884.387766,,,,0.000000000,0.000000000,0.000000000,,,,,
1781155884.387856,,,,,,,1781155884.387726068,0.785398000,0.000000000,-0.785398000,0.000000000
1781155884.388653,,,,0.000000000,0.000000000,0.000000000,,,,,
1781155884.388709,,,,,,,1781155884.388603449,0.785398000,0.000000000,-0.785398000,0.000000000
1781155884.389677,,,,0.000000000,0.000000000,0.000000000,,,,,
1781155884.389772,,,,,,,1781155884.389646292,0.785398000,0.000000000,-0.785398000,0.000000000
1781155884.390476,,,,0.000000000,0.000000000,0.000000000,,,,,
1781155884.390645,,,,,,,1781155884.390428782,0.785398000,0.000000000,-0.785398000,0.000000000
1781155884.391497,,,,0.000000000,0.000000000,0.000000000,,,,,
1781155884.391551,,,,,,,1781155884.391425610,0.785398000,0.000000000,-0.785398000,0.000000000
1781155884.392314,,,,0.000000000,0.000000000,0.000000000,,,,,
1781155884.392403,,,,,,,1781155884.392276049,0.785398000,0.000000000,-0.785398000,0.000000000
1781155884.393372,,,,0.000000000,0.000000000,0.000000000,,,,,
1781155884.393410,,,,,,,1781155884.393265486,0.785398000,0.000000000,-0.785398000,0.000000000
1781155884.394172,,,,0.000000000,0.000000000,0.000000000,,,,,
1781155884.394203,,,,,,,1781155884.394129515,0.785398000,0.000000000,-0.785398000,0.000000000
1781155884.395065,,,,0.000000000,0.000000000,0.000000000,,,,,
1781155884.395122,,,,,,,1781155884.395011663,0.785398000,0.000000000,-0.785398000,0.000000000
1781155884.395979,,,,0.000000000,0.000000000,0.000000000,,,,,
1781155884.396107,,,,,,,1781155884.395944595,0.785398000,0.000000000,-0.785398000,0.000000000
1781155884.396971,,,,0.000000000,0.000000000,0.000000000,,,,,
1781155884.397027,,,,,,,1781155884.396916151,0.785398000,0.000000000,-0.785398000,0.000000000
1781155884.397958,,,,0.000000000,0.000000000,0.000000000,,,,,
1781155884.397976,,,,,,,1781155884.397838116,0.785398000,0.000000000,-0.785398000,0.000000000
1781155884.398715,,,,0.000000000,0.000000000,0.000000000,,,,,
1781155884.398783,,,,,,,1781155884.398683548,0.785398000,0.000000000,-0.785398000,0.000000000
1781155884.399675,,,,0.000000000,0.000000000,0.000000000,,,,,
1781155884.399704,,,,,,,1781155884.399641275,0.785398000,0.000000000,-0.785398000,0.000000000
1781155884.400618,,,,0.000000000,0.000000000,0.000000000,,,,,
1781155884.400673,,,,,,,1781155884.400584936,0.785398000,0.000000000,-0.785398000,0.000000000
1781155884.401469,,,,0.000000000,0.000000000,0.000000000,,,,,
1781155884.401526,,,,,,,1781155884.401414394,0.785398000,0.000000000,-0.785398000,0.000000000
1781155884.402408,,,,0.000000000,0.000000000,0.000000000,,,,,
1781155884.402438,,,,,,,1781155884.402365208,0.785398000,0.000000000,-0.785398000,0.000000000
1781155884.403365,,,,0.000000000,0.000000000,0.000000000,,,,,
1781155884.403394,,,,,,,1781155884.403311729,0.785398000,0.000000000,-0.785398000,0.000000000
1781155884.404264,,,,0.000000000,0.000000000,0.000000000,,,,,
1781155884.404347,,,,,,,1781155884.404230356,0.785398000,0.000000000,-0.785398000,0.000000000
1781155884.405162,,,,0.000000000,0.000000000,0.000000000,,,,,
1781155884.405180,,,,,,,1781155884.405105114,0.785398000,0.000000000,-0.785398000,0.000000000
1781155884.406130,,,,0.000000000,0.000000000,0.000000000,,,,,
1781155884.406157,,,,,,,1781155884.406033516,0.785398000,0.000000000,-0.785398000,0.000000000
1781155884.407074,,,,0.000000000,0.000000000,0.000000000,,,,,
1781155884.407134,,,,,,,1781155884.407009363,0.785398000,0.000000000,-0.785398000,0.000000000
1781155884.407964,,,,0.000000000,0.000000000,0.000000000,,,,,
1781155884.407992,,,,,,,1781155884.407868147,0.785398000,0.000000000,-0.785398000,0.000000000
1781155884.408903,,,,0.000000000,0.000000000,0.000000000,,,,,
1781155884.408989,,,,,,,1781155884.408877850,0.785398000,0.000000000,-0.785398000,0.000000000
1781155884.409729,,,,0.000000000,0.000000000,0.000000000,,,,,
1781155884.409813,,,,,,,1781155884.409672499,0.785398000,0.000000000,-0.785398000,0.000000000
1781155884.410699,,,,0.000000000,0.000000000,0.000000000,,,,,
1781155884.410730,,,,,,,1781155884.410655022,0.785398000,0.000000000,-0.785398000,0.000000000
1781155884.411611,,,,0.000000000,0.000000000,0.000000000,,,,,
1781155884.411702,,,,,,,1781155884.411571741,0.785398000,0.000000000,-0.785398000,0.000000000
1781155884.412490,,,,0.000000000,0.000000000,0.000000000,,,,,
1781155884.412564,,,,,,,1781155884.412429094,0.785398000,0.000000000,-0.785398000,0.000000000
1781155884.413476,,,,0.000000000,0.000000000,0.000000000,,,,,
1781155884.413571,,,,,,,1781155884.413438797,0.785398000,0.000000000,-0.785398000,0.000000000
1781155884.414317,,,,0.000000000,0.000000000,0.000000000,,,,,
1781155884.414428,,,,,,,1781155884.414279938,0.785398000,0.000000000,-0.785398000,0.000000000
1781155884.415252,,,,0.000000000,0.000000000,0.000000000,,,,,
1781155884.415284,,,,,,,1781155884.415184021,0.785398000,0.000000000,-0.785398000,0.000000000
1781155884.416385,,,,0.000000000,0.000000000,0.000000000,,,,,
1781155884.416451,,,,,,,1781155884.416255236,0.785398000,0.000000000,-0.785398000,0.000000000
1781155884.417046,,,,0.000000000,0.000000000,0.000000000,,,,,
1781155884.417131,,,,,,,1781155884.417020321,0.785398000,0.000000000,-0.785398000,0.000000000
1781155884.417956,,,,0.000000000,0.000000000,0.000000000,,,,,
1781155884.418148,,,,,,,1781155884.417920113,0.785398000,0.000000000,-0.785398000,0.000000000
1781155884.418987,,,,0.000000000,0.000000000,0.000000000,,,,,
1781155884.419051,,,,,,,1781155884.418920755,0.785398000,0.000000000,-0.785398000,0.000000000
1781155884.419865,,,,0.000000000,0.000000000,0.000000000,,,,,
1781155884.419930,,,,,,,1781155884.419809818,0.785398000,0.000000000,-0.785398000,0.000000000
1781155884.420712,,,,0.000000000,0.000000000,0.000000000,,,,,
1781155884.420794,,,,,,,1781155884.420674562,0.785398000,0.000000000,-0.785398000,0.000000000
1781155884.421676,,,,0.000000000,0.000000000,0.000000000,,,,,
1781155884.421736,,,,,,,1781155884.421642303,0.785398000,0.000000000,-0.785398000,0.000000000
1781155884.422578,,,,0.000000000,0.000000000,0.000000000,,,,,
1781155884.422635,,,,,,,1781155884.422542095,0.785398000,0.000000000,-0.785398000,0.000000000
1781155884.423509,,,,0.000000000,0.000000000,0.000000000,,,,,
1781155884.423637,,,,,,,1781155884.423470974,0.785398000,0.000000000,-0.785398000,0.000000000
1781155884.424458,,,,0.000000000,0.000000000,0.000000000,,,,,
1781155884.424518,,,,,,,1781155884.424398899,0.785398000,0.000000000,-0.785398000,0.000000000
1781155884.425284,,,,0.000000000,0.000000000,0.000000000,,,,,
1781155884.425380,,,,,,,1781155884.425255299,0.785398000,0.000000000,-0.785398000,0.000000000
1781155884.426315,,,,0.000000000,0.000000000,0.000000000,,,,,
1781155884.426383,,,,,,,1781155884.426251888,0.785398000,0.000000000,-0.785398000,0.000000000
1781155884.427208,,,,0.000000000,0.000000000,0.000000000,,,,,
1781155884.427248,,,,,,,1781155884.427123547,0.785398000,0.000000000,-0.785398000,0.000000000
1781155884.428179,,,,0.000000000,0.000000000,0.000000000,,,,,
1781155884.428221,,,,,,,1781155884.428094149,0.785398000,0.000000000,-0.785398000,0.000000000
1781155884.429033,,,,0.000000000,0.000000000,0.000000000,,,,,
1781155884.429184,,,,,,,1781155884.428996563,0.785398000,0.000000000,-0.785398000,0.000000000
1781155884.429982,,,,0.000000000,0.000000000,0.000000000,,,,,
1781155884.430072,,,,,,,1781155884.429937124,0.785398000,0.000000000,-0.785398000,0.000000000
1781155884.430893,,,,0.000000000,0.000000000,0.000000000,,,,,
1781155884.430983,,,,,,,1781155884.430845499,0.785398000,0.000000000,-0.785398000,0.000000000
1781155884.431726,,,,0.000000000,0.000000000,0.000000000,,,,,
1781155884.431759,,,,,,,1781155884.431684256,0.785398000,0.000000000,-0.785398000,0.000000000
1781155884.432803,,,,0.000000000,0.000000000,0.000000000,,,,,
1781155884.432870,,,,,,,1781155884.432595015,0.785398000,0.000000000,-0.785398000,0.000000000
1781155884.433662,,,,0.000000000,0.000000000,0.000000000,,,,,
1781155884.433761,,,,,,,1781155884.433627605,0.785398000,0.000000000,-0.785398000,0.000000000
1781155884.434454,,,,0.000000000,0.000000000,0.000000000,,,,,
1781155884.434613,,,,,,,1781155884.434417963,0.785398000,0.000000000,-0.785398000,0.000000000
1781155884.435467,,,,0.000000000,0.000000000,0.000000000,,,,,
1781155884.435542,,,,,,,1781155884.435389280,0.785398000,0.000000000,-0.785398000,0.000000000
1781155884.436351,,,,0.000000000,0.000000000,0.000000000,,,,,
1781155884.436438,,,,,,,1781155884.436342716,0.785398000,0.000000000,-0.785398000,0.000000000
1781155884.437218,,,,0.000000000,0.000000000,0.000000000,,,,,
1781155884.437299,,,,,,,1781155884.437184572,0.785398000,0.000000000,-0.785398000,0.000000000
1781155884.438204,,,,0.000000000,0.000000000,0.000000000,,,,,
1781155884.438267,,,,,,,1781155884.438136339,0.785398000,0.000000000,-0.785398000,0.000000000
1781155884.439060,,,,0.000000000,0.000000000,0.000000000,,,,,
1781155884.439106,,,,,,,1781155884.439023733,0.785398000,0.000000000,-0.785398000,0.000000000
1781155884.440001,,,,0.000000000,0.000000000,0.000000000,,,,,
1781155884.440090,,,,,,,1781155884.439951420,0.785398000,0.000000000,-0.785398000,0.000000000
1781155884.440977,,,,0.000000000,0.000000000,0.000000000,,,,,
1781155884.441038,,,,,,,1781155884.440917253,0.785398000,0.000000000,-0.785398000,0.000000000
1781155884.441906,,,,0.000000000,0.000000000,0.000000000,,,,,
1781155884.441914,,,,,,,1781155884.441806316,0.785398000,0.000000000,-0.785398000,0.000000000
1781155884.442814,,,,0.000000000,0.000000000,0.000000000,,,,,
1781155884.442854,,,,,,,1781155884.442731619,0.785398000,0.000000000,-0.785398000,0.000000000
1781155884.443707,,,,0.000000000,0.000000000,0.000000000,,,,,
1781155884.443716,,,,,,,1781155884.443614483,0.785398000,0.000000000,-0.785398000,0.000000000
1781155884.444711,,,,0.000000000,0.000000000,0.000000000,,,,,
1781155884.444790,,,,,,,1781155884.444643259,0.785398000,0.000000000,-0.785398000,0.000000000
1781155884.445473,,,,0.000000000,0.000000000,0.000000000,,,,,
1781155884.445596,,,,,,,1781155884.445424795,0.785398000,0.000000000,-0.785398000,0.000000000
1781155884.446385,,,,0.000000000,0.000000000,0.000000000,,,,,
1781155884.446467,,,,,,,1781155884.446352243,0.785398000,0.000000000,-0.785398000,0.000000000
1781155884.447316,,,,0.000000000,0.000000000,0.000000000,,,,,
1781155884.447344,,,,,,,1781155884.447280645,0.785398000,0.000000000,-0.785398000,0.000000000
1781155884.448244,,,,0.000000000,0.000000000,0.000000000,,,,,
1781155884.448299,,,,,,,1781155884.448163748,0.785398000,0.000000000,-0.785398000,0.000000000
1781155884.449177,,,,0.000000000,0.000000000,0.000000000,,,,,
1781155884.449231,,,,,,,1781155884.449127197,0.785398000,0.000000000,-0.785398000,0.000000000
1781155884.450169,,,,0.000000000,0.000000000,0.000000000,,,,,
1781155884.450223,,,,,,,1781155884.450072050,0.785398000,0.000000000,-0.785398000,0.000000000
1781155884.450990,,,,0.000000000,0.000000000,0.000000000,,,,,
1781155884.451145,,,,,,,1781155884.450960398,0.785398000,0.000000000,-0.785398000,0.000000000
1781155884.451938,,,,0.000000000,0.000000000,0.000000000,,,,,
1781155884.452015,,,,,,,1781155884.451897144,0.785398000,0.000000000,-0.785398000,0.000000000
1781155884.452810,,,,0.000000000,0.000000000,0.000000000,,,,,
1781155884.452887,,,,,,,1781155884.452769995,0.785398000,0.000000000,-0.785398000,0.000000000
1781155884.453758,,,,0.000000000,0.000000000,0.000000000,,,,,
1781155884.453794,,,,,,,1781155884.453715563,0.785398000,0.000000000,-0.785398000,0.000000000
1781155884.454631,,,,0.000000000,0.000000000,0.000000000,,,,,
1781155884.454660,,,,,,,1781155884.454597235,0.785398000,0.000000000,-0.785398000,0.000000000
1781155884.455693,,,,0.000000000,0.000000000,0.000000000,,,,,
1781155884.455798,,,,,,,1781155884.455659866,0.785398000,0.000000000,-0.785398000,0.000000000
1781155884.456602,,,,0.000000000,0.000000000,0.000000000,,,,,
1781155884.456627,,,,,,,1781155884.456516266,0.785398000,0.000000000,-0.785398000,0.000000000
1781155884.457537,,,,0.000000000,0.000000000,0.000000000,,,,,
1781155884.457576,,,,,,,1781155884.457441092,0.785398000,0.000000000,-0.785398000,0.000000000
1781155884.458365,,,,0.000000000,0.000000000,0.000000000,,,,,
1781155884.458452,,,,,,,1781155884.458331585,0.785398000,0.000000000,-0.785398000,0.000000000
1781155884.459275,,,,0.000000000,0.000000000,0.000000000,,,,,
1781155884.459356,,,,,,,1781155884.459238529,0.785398000,0.000000000,-0.785398000,0.000000000
1781155884.460250,,,,0.000000000,0.000000000,0.000000000,,,,,
1781155884.460287,,,,,,,1781155884.460189819,0.785398000,0.000000000,-0.785398000,0.000000000
1781155884.461085,,,,0.000000000,0.000000000,0.000000000,,,,,
1781155884.461192,,,,,,,1781155884.461078405,0.785398000,0.000000000,-0.785398000,0.000000000
1781155884.461953,,,,0.000000000,0.000000000,0.000000000,,,,,
1781155884.462077,,,,,,,1781155884.461910009,0.785398000,0.000000000,-0.785398000,0.000000000
1781155884.462938,,,,0.000000000,0.000000000,0.000000000,,,,,
1781155884.463066,,,,,,,1781155884.462904215,0.785398000,0.000000000,-0.785398000,0.000000000
1781155884.463816,,,,0.000000000,0.000000000,0.000000000,,,,,
1781155884.463946,,,,,,,1781155884.463807821,0.785398000,0.000000000,-0.785398000,0.000000000
1781155884.464746,,,,0.000000000,0.000000000,0.000000000,,,,,
1781155884.464822,,,,,,,1781155884.464706421,0.785398000,0.000000000,-0.785398000,0.000000000
1781155884.465689,,,,0.000000000,0.000000000,0.000000000,,,,,
1781155884.465735,,,,,,,1781155884.465651274,0.785398000,0.000000000,-0.785398000,0.000000000
1781155884.466589,,,,0.000000000,0.000000000,0.000000000,,,,,
1781155884.466679,,,,,,,1781155884.466535330,0.785398000,0.000000000,-0.785398000,0.000000000
1781155884.467499,,,,0.000000000,0.000000000,0.000000000,,,,,
1781155884.467607,,,,,,,1781155884.467442274,0.785398000,0.000000000,-0.785398000,0.000000000
1781155884.468492,,,,0.000000000,0.000000000,0.000000000,,,,,
1781155884.468593,,,,,,,1781155884.468448162,0.785398000,0.000000000,-0.785398000,0.000000000
1781155884.469360,,,,0.000000000,0.000000000,0.000000000,,,,,
1781155884.469425,,,,,,,1781155884.469286680,0.785398000,0.000000000,-0.785398000,0.000000000
1781155884.470285,,,,0.000000000,0.000000000,0.000000000,,,,,
1781155884.470395,,,,,,,1781155884.470243692,0.785398000,0.000000000,-0.785398000,0.000000000
1781155884.471144,,,,0.000000000,0.000000000,0.000000000,,,,,
1781155884.471177,,,,,,,1781155884.471108675,0.785398000,0.000000000,-0.785398000,0.000000000
1781155884.472109,,,,0.000000000,0.000000000,0.000000000,,,,,
1781155884.472303,,,,,,,1781155884.472043991,0.785398000,0.000000000,-0.785398000,0.000000000
1781155884.472982,,,,0.000000000,0.000000000,0.000000000,,,,,
1781155884.473133,,,,,,,1781155884.472967863,0.785398000,0.000000000,-0.785398000,0.000000000
1781155884.474016,,,,0.000000000,0.000000000,0.000000000,,,,,
1781155884.474054,,,,,,,1781155884.473913908,0.785398000,0.000000000,-0.785398000,0.000000000
1781155884.474825,,,,0.000000000,0.000000000,0.000000000,,,,,
1781155884.474881,,,,,,,1781155884.474775553,0.785398000,0.000000000,-0.785398000,0.000000000
1781155884.475742,,,,0.000000000,0.000000000,0.000000000,,,,,
1781155884.475773,,,,,,,1781155884.475696325,0.785398000,0.000000000,-0.785398000,0.000000000
1781155884.476681,,,,0.000000000,0.000000000,0.000000000,,,,,
1781155884.476781,,,,,,,1781155884.476640224,0.785398000,0.000000000,-0.785398000,0.000000000
1781155884.477597,,,,0.000000000,0.000000000,0.000000000,,,,,
1781155884.477678,,,,,,,1781155884.477564573,0.785398000,0.000000000,-0.785398000,0.000000000
1781155884.478521,,,,0.000000000,0.000000000,0.000000000,,,,,
1781155884.478586,,,,,,,1781155884.478462219,0.785398000,0.000000000,-0.785398000,0.000000000
1781155884.479673,,,,0.000000000,0.000000000,0.000000000,,,,,
1781155884.479807,,,,,,,1781155884.479600906,0.785398000,0.000000000,-0.785398000,0.000000000
1781155884.480296,,,,0.000000000,0.000000000,0.000000000,,,,,
1781155884.480329,,,,,,,1781155884.480246782,0.785398000,0.000000000,-0.785398000,0.000000000
1781155884.481274,,,,0.000000000,0.000000000,0.000000000,,,,,
1781155884.481366,,,,,,,1781155884.481236935,0.785398000,0.000000000,-0.785398000,0.000000000
1781155884.482245,,,,0.000000000,0.000000000,0.000000000,,,,,
1781155884.482274,,,,,,,1781155884.482205629,0.785398000,0.000000000,-0.785398000,0.000000000
1781155884.483183,,,,0.000000000,0.000000000,0.000000000,,,,,
1781155884.483238,,,,,,,1781155884.483110666,0.785398000,0.000000000,-0.785398000,0.000000000
1781155884.483957,,,,0.000000000,0.000000000,0.000000000,,,,,
1781155884.484041,,,,,,,1781155884.483916998,0.785398000,0.000000000,-0.785398000,0.000000000
1781155884.485101,,,,0.000000000,0.000000000,0.000000000,,,,,
1781155884.485118,,,,,,,1781155884.484972715,0.785398000,0.000000000,-0.785398000,0.000000000
1781155884.485897,,,,0.000000000,0.000000000,0.000000000,,,,,
1781155884.485930,,,,,,,1781155884.485865355,0.785398000,0.000000000,-0.785398000,0.000000000
1781155884.486783,,,,0.000000000,0.000000000,0.000000000,,,,,
1781155884.486802,,,,,,,1781155884.486665726,0.785398000,0.000000000,-0.785398000,0.000000000
1781155884.487742,,,,0.000000000,0.000000000,0.000000000,,,,,
1781155884.487772,,,,,,,1781155884.487602949,0.785398000,0.000000000,-0.785398000,0.000000000
1781155884.488745,,,,0.000000000,0.000000000,0.000000000,,,,,
1781155884.488809,,,,,,,1781155884.488666296,0.785398000,0.000000000,-0.785398000,0.000000000
1781155884.489480,,,,0.000000000,0.000000000,0.000000000,,,,,
1781155884.489551,,,,,,,1781155884.489432335,0.785398000,0.000000000,-0.785398000,0.000000000
1781155884.490371,,,,0.000000000,0.000000000,0.000000000,,,,,
1781155884.490402,,,,,,,1781155884.490332365,0.785398000,0.000000000,-0.785398000,0.000000000
1781155884.491358,,,,0.000000000,0.000000000,0.000000000,,,,,
1781155884.491429,,,,,,,1781155884.491322994,0.785398000,0.000000000,-0.785398000,0.000000000
1781155884.492236,,,,0.000000000,0.000000000,0.000000000,,,,,
1781155884.492324,,,,,,,1781155884.492200851,0.785398000,0.000000000,-0.785398000,0.000000000
1781155884.493155,,,,0.000000000,0.000000000,0.000000000,,,,,
1781155884.493213,,,,,,,1781155884.493099213,0.785398000,0.000000000,-0.785398000,0.000000000
1781155884.494128,,,,0.000000000,0.000000000,0.000000000,,,,,
1781155884.494246,,,,,,,1781155884.494102478,0.785398000,0.000000000,-0.785398000,0.000000000
1781155884.494959,,,,0.000000000,0.000000000,0.000000000,,,,,
1781155884.495080,,,,,,,1781155884.494923592,0.785398000,0.000000000,-0.785398000,0.000000000
1781155884.495964,,,,0.000000000,0.000000000,0.000000000,,,,,
1781155884.496027,,,,,,,1781155884.495937109,0.785398000,0.000000000,-0.785398000,0.000000000
1781155884.496801,,,,0.000000000,0.000000000,0.000000000,,,,,
1781155884.496904,,,,,,,1781155884.496795654,0.785398000,0.000000000,-0.785398000,0.000000000
1781155884.497720,,,,0.000000000,0.000000000,0.000000000,,,,,
1781155884.497779,,,,,,,1781155884.497666359,0.785398000,0.000000000,-0.785398000,0.000000000
1781155884.498743,,,,0.000000000,0.000000000,0.000000000,,,,,
1781155884.498751,,,,,,,1781155884.498641491,0.785398000,0.000000000,-0.785398000,0.000000000
1781155884.499604,,,,0.000000000,0.000000000,0.000000000,,,,,
1781155884.499703,,,,,,,1781155884.499572515,0.785398000,0.000000000,-0.785398000,0.000000000
1781155884.500623,,,,0.000000000,0.000000000,0.000000000,,,,,
1781155884.500714,,,,,,,1781155884.500561714,0.785398000,0.000000000,-0.785398000,0.000000000
1781155884.501440,,,,0.000000000,0.000000000,0.000000000,,,,,
1781155884.501495,,,,,,,1781155884.501366615,0.785398000,0.000000000,-0.785398000,0.000000000
1781155884.502311,,,,0.000000000,0.000000000,0.000000000,,,,,
1781155884.502394,,,,,,,1781155884.502268314,0.785398000,0.000000000,-0.785398000,0.000000000
1781155884.503279,,,,0.000000000,0.000000000,0.000000000,,,,,
1781155884.503332,,,,,,,1781155884.503216982,0.785398000,0.000000000,-0.785398000,0.000000000
1781155884.504232,,,,0.000000000,0.000000000,0.000000000,,,,,
1781155884.504286,,,,,,,1781155884.504127502,0.785398000,0.000000000,-0.785398000,0.000000000
1781155884.505063,,,,0.000000000,0.000000000,0.000000000,,,,,
1781155884.505095,,,,,,,1781155884.505020142,0.785398000,0.000000000,-0.785398000,0.000000000
1781155884.506016,,,,0.000000000,0.000000000,0.000000000,,,,,
1781155884.506142,,,,,,,1781155884.505980968,0.785398000,0.000000000,-0.785398000,0.000000000
1781155884.506998,,,,0.000000000,0.000000000,0.000000000,,,,,
1781155884.507044,,,,,,,1781155884.506959200,0.785398000,0.000000000,-0.785398000,0.000000000
1781155884.507877,,,,0.000000000,0.000000000,0.000000000,,,,,
1781155884.507932,,,,,,,1781155884.507819653,0.785398000,0.000000000,-0.785398000,0.000000000
1781155884.508736,,,,0.000000000,0.000000000,0.000000000,,,,,
1781155884.508876,,,,,,,1781155884.508703947,0.785398000,0.000000000,-0.785398000,0.000000000
1781155884.509810,,,,0.000000000,0.000000000,0.000000000,,,,,
1781155884.509848,,,,,,,1781155884.509753466,0.785398000,0.000000000,-0.785398000,0.000000000
1781155884.510545,,,,0.000000000,0.000000000,0.000000000,,,,,
1781155884.510574,,,,,,,1781155884.510504484,0.785398000,0.000000000,-0.785398000,0.000000000
1781155884.511468,,,,0.000000000,0.000000000,0.000000000,,,,,
1781155884.511602,,,,,,,1781155884.511436224,0.785398000,0.000000000,-0.785398000,0.000000000
1781155884.512497,,,,0.000000000,0.000000000,0.000000000,,,,,
1781155884.512579,,,,,,,1781155884.512461901,0.785398000,0.000000000,-0.785398000,0.000000000
1781155884.513462,,,,0.000000000,0.000000000,0.000000000,,,,,
1781155884.513500,,,,,,,1781155884.513365507,0.785398000,0.000000000,-0.785398000,0.000000000
1781155884.514269,,,,0.000000000,0.000000000,0.000000000,,,,,
1781155884.514324,,,,,,,1781155884.514212608,0.785398000,0.000000000,-0.785398000,0.000000000
1781155884.515132,,,,0.000000000,0.000000000,0.000000000,,,,,
1781155884.515197,,,,,,,1781155884.515098333,0.785398000,0.000000000,-0.785398000,0.000000000
1781155884.516144,,,,0.000000000,0.000000000,0.000000000,,,,,
1781155884.516247,,,,,,,1781155884.516112566,0.785398000,0.000000000,-0.785398000,0.000000000
1781155884.517023,,,,0.000000000,0.000000000,0.000000000,,,,,
1781155884.517192,,,,,,,1781155884.516989470,0.785398000,0.000000000,-0.785398000,0.000000000
1781155884.517944,,,,0.000000000,0.000000000,0.000000000,,,,,
1781155884.518004,,,,,,,1781155884.517842293,0.785398000,0.000000000,-0.785398000,0.000000000
1781155884.518998,,,,0.000000000,0.000000000,0.000000000,,,,,
1781155884.519062,,,,,,,1781155884.518921137,0.785398000,0.000000000,-0.785398000,0.000000000
1781155884.519758,,,,0.000000000,0.000000000,0.000000000,,,,,
1781155884.519871,,,,,,,1781155884.519735575,0.785398000,0.000000000,-0.785398000,0.000000000
1781155884.520651,,,,0.000000000,0.000000000,0.000000000,,,,,
1781155884.520680,,,,,,,1781155884.520593643,0.785398000,0.000000000,-0.785398000,0.000000000
1781155884.521625,,,,0.000000000,0.000000000,0.000000000,,,,,
1781155884.521700,,,,,,,1781155884.521589994,0.785398000,0.000000000,-0.785398000,0.000000000
1781155884.522459,,,,0.000000000,0.000000000,0.000000000,,,,,
1781155884.522573,,,,,,,1781155884.522422552,0.785398000,0.000000000,-0.785398000,0.000000000
1781155884.523472,,,,0.000000000,0.000000000,0.000000000,,,,,
1781155884.523563,,,,,,,1781155884.523434401,0.785398000,0.000000000,-0.785398000,0.000000000
1781155884.524345,,,,0.000000000,0.000000000,0.000000000,,,,,
1781155884.524449,,,,,,,1781155884.524335623,0.785398000,0.000000000,-0.785398000,0.000000000
1781155884.525264,,,,0.000000000,0.000000000,0.000000000,,,,,
1781155884.525367,,,,,,,1781155884.525237083,0.785398000,0.000000000,-0.785398000,0.000000000
1781155884.526193,,,,0.000000000,0.000000000,0.000000000,,,,,
1781155884.526253,,,,,,,1781155884.526140690,0.785398000,0.000000000,-0.785398000,0.000000000
1781155884.527149,,,,0.000000000,0.000000000,0.000000000,,,,,
1781155884.527219,,,,,,,1781155884.527109861,0.785398000,0.000000000,-0.785398000,0.000000000
1781155884.527984,,,,0.000000000,0.000000000,0.000000000,,,,,
1781155884.528044,,,,,,,1781155884.527916193,0.785398000,0.000000000,-0.785398000,0.000000000
1781155884.529091,,,,0.000000000,0.000000000,0.000000000,,,,,
1781155884.529109,,,,,,,1781155884.529003382,0.785398000,0.000000000,-0.785398000,0.000000000
1781155884.529952,,,,0.000000000,0.000000000,0.000000000,,,,,
1781155884.529990,,,,,,,1781155884.529818535,0.785398000,0.000000000,-0.785398000,0.000000000
1781155884.530754,,,,0.000000000,0.000000000,0.000000000,,,,,
1781155884.530815,,,,,,,1781155884.530692101,0.785398000,0.000000000,-0.785398000,0.000000000
1781155884.531651,,,,0.000000000,0.000000000,0.000000000,,,,,
1781155884.531708,,,,,,,1781155884.531598806,0.785398000,0.000000000,-0.785398000,0.000000000
1781155884.532661,,,,0.000000000,0.000000000,0.000000000,,,,,
1781155884.532722,,,,,,,1781155884.532575846,0.785398000,0.000000000,-0.785398000,0.000000000
1781155884.533491,,,,0.000000000,0.000000000,0.000000000,,,,,
1781155884.533536,,,,,,,1781155884.533417940,0.785398000,0.000000000,-0.785398000,0.000000000
1781155884.534554,,,,0.000000000,0.000000000,0.000000000,,,,,
1781155884.534596,,,,,,,1781155884.534448385,0.785398000,0.000000000,-0.785398000,0.000000000
1781155884.535361,,,,0.000000000,0.000000000,0.000000000,,,,,
1781155884.535447,,,,,,,1781155884.535321236,0.785398000,0.000000000,-0.785398000,0.000000000
1781155884.536243,,,,0.000000000,0.000000000,0.000000000,,,,,
1781155884.536282,,,,,,,1781155884.536194086,0.785398000,0.000000000,-0.785398000,0.000000000
1781155884.537184,,,,0.000000000,0.000000000,0.000000000,,,,,
1781155884.537243,,,,,,,1781155884.537126064,0.785398000,0.000000000,-0.785398000,0.000000000
1781155884.538049,,,,0.000000000,0.000000000,0.000000000,,,,,
1781155884.538116,,,,,,,1781155884.538011074,0.785398000,0.000000000,-0.785398000,0.000000000
1781155884.538956,,,,0.000000000,0.000000000,0.000000000,,,,,
1781155884.539103,,,,,,,1781155884.538927078,0.785398000,0.000000000,-0.785398000,0.000000000
1781155884.539999,,,,0.000000000,0.000000000,0.000000000,,,,,
1781155884.540093,,,,,,,1781155884.539964676,0.785398000,0.000000000,-0.785398000,0.000000000
1781155884.540897,,,,0.000000000,0.000000000,0.000000000,,,,,
1781155884.541010,,,,,,,1781155884.540866137,0.785398000,0.000000000,-0.785398000,0.000000000
1781155884.541730,,,,0.000000000,0.000000000,0.000000000,,,,,
1781155884.541800,,,,,,,1781155884.541662931,0.785398000,0.000000000,-0.785398000,0.000000000
1781155884.542677,,,,0.000000000,0.000000000,0.000000000,,,,,
1781155884.542712,,,,,,,1781155884.542636633,0.785398000,0.000000000,-0.785398000,0.000000000
1781155884.543629,,,,0.000000000,0.000000000,0.000000000,,,,,
1781155884.543685,,,,,,,1781155884.543561220,0.785398000,0.000000000,-0.785398000,0.000000000
1781155884.544497,,,,0.000000000,0.000000000,0.000000000,,,,,
1781155884.544523,,,,,,,1781155884.544414520,0.785398000,0.000000000,-0.785398000,0.000000000
1781155884.545475,,,,0.000000000,0.000000000,0.000000000,,,,,
1781155884.545515,,,,,,,1781155884.545403242,0.785398000,0.000000000,-0.785398000,0.000000000
1781155884.546399,,,,0.000000000,0.000000000,0.000000000,,,,,
1781155884.546490,,,,,,,1781155884.546352386,0.785398000,0.000000000,-0.785398000,0.000000000
1781155884.547281,,,,0.000000000,0.000000000,0.000000000,,,,,
1781155884.547361,,,,,,,1781155884.547239065,0.785398000,0.000000000,-0.785398000,0.000000000
1781155884.548204,,,,0.000000000,0.000000000,0.000000000,,,,,
1781155884.548245,,,,,,,1781155884.548107862,0.785398000,0.000000000,-0.785398000,0.000000000
1781155884.549091,,,,0.000000000,0.000000000,0.000000000,,,,,
1781155884.549114,,,,,,,1781155884.549006939,0.785398000,0.000000000,-0.785398000,0.000000000
1781155884.550117,,,,0.000000000,0.000000000,0.000000000,,,,,
1781155884.550134,,,,,,,1781155884.549953699,0.785398000,0.000000000,-0.785398000,0.000000000
1781155884.550920,,,,0.000000000,0.000000000,0.000000000,,,,,
1781155884.551006,,,,,,,1781155884.550880432,0.785398000,0.000000000,-0.785398000,0.000000000
1781155884.551856,,,,0.000000000,0.000000000,0.000000000,,,,,
1781155884.551926,,,,,,,1781155884.551816940,0.785398000,0.000000000,-0.785398000,0.000000000
1781155884.552726,,,,0.000000000,0.000000000,0.000000000,,,,,
1781155884.552815,,,,,,,1781155884.552689314,0.785398000,0.000000000,-0.785398000,0.000000000
1781155884.553693,,,,0.000000000,0.000000000,0.000000000,,,,,
1781155884.553722,,,,,,,1781155884.553656578,0.785398000,0.000000000,-0.785398000,0.000000000
1781155884.554612,,,,0.000000000,0.000000000,0.000000000,,,,,
1781155884.554699,,,,,,,1781155884.554571390,0.785398000,0.000000000,-0.785398000,0.000000000
1781155884.555522,,,,0.000000000,0.000000000,0.000000000,,,,,
1781155884.555671,,,,,,,1781155884.555485725,0.785398000,0.000000000,-0.785398000,0.000000000
1781155884.556476,,,,0.000000000,0.000000000,0.000000000,,,,,
1781155884.556559,,,,,,,1781155884.556439638,0.785398000,0.000000000,-0.785398000,0.000000000
1781155884.557423,,,,0.000000000,0.000000000,0.000000000,,,,,
1781155884.557499,,,,,,,1781155884.557330370,0.785398000,0.000000000,-0.785398000,0.000000000
1781155884.558219,,,,0.000000000,0.000000000,0.000000000,,,,,
1781155884.558362,,,,,,,1781155884.558182955,0.785398000,0.000000000,-0.785398000,0.000000000
1781155884.559162,,,,0.000000000,0.000000000,0.000000000,,,,,
1781155884.559253,,,,,,,1781155884.559104919,0.785398000,0.000000000,-0.785398000,0.000000000
1781155884.560135,,,,0.000000000,0.000000000,0.000000000,,,,,
1781155884.560195,,,,,,,1781155884.560066462,0.785398000,0.000000000,-0.785398000,0.000000000
1781155884.561014,,,,0.000000000,0.000000000,0.000000000,,,,,
1781155884.561157,,,,,,,1781155884.560971260,0.785398000,0.000000000,-0.785398000,0.000000000
1781155884.561989,,,,0.000000000,0.000000000,0.000000000,,,,,
1781155884.562121,,,,,,,1781155884.561972618,0.785398000,0.000000000,-0.785398000,0.000000000
1781155884.562870,,,,0.000000000,0.000000000,0.000000000,,,,,
1781155884.562971,,,,,,,1781155884.562834263,0.785398000,0.000000000,-0.785398000,0.000000000
1781155884.563771,,,,0.000000000,0.000000000,0.000000000,,,,,
1781155884.563857,,,,,,,1781155884.563733578,0.785398000,0.000000000,-0.785398000,0.000000000
1781155884.564803,,,,0.000000000,0.000000000,0.000000000,,,,,
1781155884.564814,,,,,,,1781155884.564721107,0.785398000,0.000000000,-0.785398000,0.000000000
1781155884.565637,,,,0.000000000,0.000000000,0.000000000,,,,,
1781155884.565739,,,,,,,1781155884.565610886,0.785398000,0.000000000,-0.785398000,0.000000000
1781155884.566550,,,,0.000000000,0.000000000,0.000000000,,,,,
1781155884.566635,,,,,,,1781155884.566458941,0.785398000,0.000000000,-0.785398000,0.000000000
1781155884.567414,,,,0.000000000,0.000000000,0.000000000,,,,,
1781155884.567514,,,,,,,1781155884.567375422,0.785398000,0.000000000,-0.785398000,0.000000000
1781155884.568305,,,,0.000000000,0.000000000,0.000000000,,,,,
1781155884.568335,,,,,,,1781155884.568264723,0.785398000,0.000000000,-0.785398000,0.000000000
1781155884.569280,,,,0.000000000,0.000000000,0.000000000,,,,,
1781155884.569353,,,,,,,1781155884.569241524,0.785398000,0.000000000,-0.785398000,0.000000000
1781155884.570228,,,,0.000000000,0.000000000,0.000000000,,,,,
1781155884.570300,,,,,,,1781155884.570186615,0.785398000,0.000000000,-0.785398000,0.000000000
1781155884.571179,,,,0.000000000,0.000000000,0.000000000,,,,,
1781155884.571187,,,,,,,1781155884.571059704,0.785398000,0.000000000,-0.785398000,0.000000000
1781155884.571999,,,,0.000000000,0.000000000,0.000000000,,,,,
1781155884.572107,,,,,,,1781155884.571954727,0.785398000,0.000000000,-0.785398000,0.000000000
1781155884.573047,,,,0.000000000,0.000000000,0.000000000,,,,,
1781155884.573104,,,,,,,1781155884.572971821,0.785398000,0.000000000,-0.785398000,0.000000000
1781155884.573899,,,,0.000000000,0.000000000,0.000000000,,,,,
1781155884.573936,,,,,,,1781155884.573821068,0.785398000,0.000000000,-0.785398000,0.000000000
1781155884.574780,,,,0.000000000,0.000000000,0.000000000,,,,,
1781155884.574812,,,,,,,1781155884.574701548,0.785398000,0.000000000,-0.785398000,0.000000000
1781155884.575715,,,,0.000000000,0.000000000,0.000000000,,,,,
1781155884.575757,,,,,,,1781155884.575592041,0.785398000,0.000000000,-0.785398000,0.000000000
1781155884.576713,,,,0.000000000,0.000000000,0.000000000,,,,,
1781155884.576753,,,,,,,1781155884.576614380,0.785398000,0.000000000,-0.785398000,0.000000000
1781155884.577519,,,,0.000000000,0.000000000,0.000000000,,,,,
1781155884.577574,,,,,,,1781155884.577439308,0.785398000,0.000000000,-0.785398000,0.000000000
1781155884.578387,,,,0.000000000,0.000000000,0.000000000,,,,,
1781155884.578476,,,,,,,1781155884.578354597,0.785398000,0.000000000,-0.785398000,0.000000000
1781155884.579319,,,,0.000000000,0.000000000,0.000000000,,,,,
1781155884.579352,,,,,,,1781155884.579277039,0.785398000,0.000000000,-0.785398000,0.000000000
1781155884.580223,,,,0.000000000,0.000000000,0.000000000,,,,,
1781155884.580302,,,,,,,1781155884.580182552,0.785398000,0.000000000,-0.785398000,0.000000000
1781155884.581216,,,,0.000000000,0.000000000,0.000000000,,,,,
1781155884.581275,,,,,,,1781155884.581158161,0.785398000,0.000000000,-0.785398000,0.000000000
1781155884.582204,,,,0.000000000,0.000000000,0.000000000,,,,,
1781155884.582239,,,,,,,1781155884.582138062,0.785398000,0.000000000,-0.785398000,0.000000000
1781155884.583007,,,,0.000000000,0.000000000,0.000000000,,,,,
1781155884.583065,,,,,,,1781155884.582934856,0.785398000,0.000000000,-0.785398000,0.000000000
1781155884.583970,,,,0.000000000,0.000000000,0.000000000,,,,,
1781155884.584073,,,,,,,1781155884.583932877,0.785398000,0.000000000,-0.785398000,0.000000000
1781155884.584834,,,,0.000000000,0.000000000,0.000000000,,,,,
1781155884.584870,,,,,,,1781155884.584783554,0.785398000,0.000000000,-0.785398000,0.000000000
1781155884.585744,,,,0.000000000,0.000000000,0.000000000,,,,,
1781155884.585840,,,,,,,1781155884.585705519,0.785398000,0.000000000,-0.785398000,0.000000000
1781155884.586741,,,,0.000000000,0.000000000,0.000000000,,,,,
1781155884.586807,,,,,,,1781155884.586647987,0.785398000,0.000000000,-0.785398000,0.000000000
1781155884.587615,,,,0.000000000,0.000000000,0.000000000,,,,,
1781155884.587713,,,,,,,1781155884.587579250,0.785398000,0.000000000,-0.785398000,0.000000000
1781155884.588474,,,,0.000000000,0.000000000,0.000000000,,,,,
1781155884.588641,,,,,,,1781155884.588440657,0.785398000,0.000000000,-0.785398000,0.000000000
1781155884.589511,,,,0.000000000,0.000000000,0.000000000,,,,,
1781155884.589531,,,,,,,1781155884.589382172,0.785398000,0.000000000,-0.785398000,0.000000000
1781155884.590353,,,,0.000000000,0.000000000,0.000000000,,,,,
1781155884.590457,,,,,,,1781155884.590325594,0.785398000,0.000000000,-0.785398000,0.000000000
1781155884.591272,,,,0.000000000,0.000000000,0.000000000,,,,,
1781155884.591336,,,,,,,1781155884.591198921,0.785398000,0.000000000,-0.785398000,0.000000000
1781155884.592208,,,,0.000000000,0.000000000,0.000000000,,,,,
1781155884.592275,,,,,,,1781155884.592135429,0.785398000,0.000000000,-0.785398000,0.000000000
1781155884.593054,,,,0.000000000,0.000000000,0.000000000,,,,,
1781155884.593087,,,,,,,1781155884.593010187,0.785398000,0.000000000,-0.785398000,0.000000000
1781155884.593968,,,,0.000000000,0.000000000,0.000000000,,,,,
1781155884.594033,,,,,,,1781155884.593931437,0.785398000,0.000000000,-0.785398000,0.000000000
1781155884.594907,,,,0.000000000,0.000000000,0.000000000,,,,,
1781155884.594938,,,,,,,1781155884.594867468,0.785398000,0.000000000,-0.785398000,0.000000000
1781155884.595821,,,,0.000000000,0.000000000,0.000000000,,,,,
1781155884.595988,,,,,,,1781155884.595798969,0.785398000,0.000000000,-0.785398000,0.000000000
1781155884.596904,,,,0.000000000,0.000000000,0.000000000,,,,,
1781155884.596931,,,,,,,1781155884.596809149,0.785398000,0.000000000,-0.785398000,0.000000000
1781155884.597667,,,,0.000000000,0.000000000,0.000000000,,,,,
1781155884.597670,,,,,,,1781155884.597586632,0.785398000,0.000000000,-0.785398000,0.000000000
1781155884.598595,,,,0.000000000,0.000000000,0.000000000,,,,,
1781155884.598655,,,,,,,1781155884.598531008,0.785398000,0.000000000,-0.785398000,0.000000000
1781155884.599571,,,,0.000000000,0.000000000,0.000000000,,,,,
1781155884.599614,,,,,,,1781155884.599496603,0.785398000,0.000000000,-0.785398000,0.000000000
1781155884.600550,,,,0.000000000,0.000000000,0.000000000,,,,,
1781155884.600589,,,,,,,1781155884.600448847,0.785398000,0.000000000,-0.785398000,0.000000000
1781155884.601339,,,,0.000000000,0.000000000,0.000000000,,,,,
1781155884.601392,,,,,,,1781155884.601273537,0.785398000,0.000000000,-0.785398000,0.000000000
1781155884.602386,,,,0.000000000,0.000000000,0.000000000,,,,,
1781155884.602442,,,,,,,1781155884.602327585,0.785398000,0.000000000,-0.785398000,0.000000000
1781155884.603162,,,,0.000000000,0.000000000,0.000000000,,,,,
1781155884.603225,,,,,,,1781155884.603100538,0.785398000,0.000000000,-0.785398000,0.000000000
1781155884.604307,,,,0.000000000,0.000000000,0.000000000,,,,,
1781155884.604317,,,,,,,1781155884.604159832,0.785398000,0.000000000,-0.785398000,0.000000000
1781155884.605213,,,,0.000000000,0.000000000,0.000000000,,,,,
1781155884.605239,,,,,,,1781155884.605078697,0.785398000,0.000000000,-0.785398000,0.000000000
1781155884.606169,,,,0.000000000,0.000000000,0.000000000,,,,,
1781155884.606244,,,,,,,1781155884.606060505,0.785398000,0.000000000,-0.785398000,0.000000000
1781155884.606889,,,,0.000000000,0.000000000,0.000000000,,,,,
1781155884.606928,,,,,,,1781155884.606796026,0.785398000,0.000000000,-0.785398000,0.000000000
1781155884.607801,,,,0.000000000,0.000000000,0.000000000,,,,,
1781155884.607889,,,,,,,1781155884.607746840,0.785398000,0.000000000,-0.785398000,0.000000000
1781155884.608687,,,,0.000000000,0.000000000,0.000000000,,,,,
1781155884.608725,,,,,,,1781155884.608606100,0.785398000,0.000000000,-0.785398000,0.000000000
1781155884.609617,,,,0.000000000,0.000000000,0.000000000,,,,,
1781155884.609699,,,,,,,1781155884.609578848,0.785398000,0.000000000,-0.785398000,0.000000000
1781155884.610487,,,,0.000000000,0.000000000,0.000000000,,,,,
1781155884.610601,,,,,,,1781155884.610440254,0.785398000,0.000000000,-0.785398000,0.000000000
1781155884.611554,,,,0.000000000,0.000000000,0.000000000,,,,,
1781155884.611595,,,,,,,1781155884.611460447,0.785398000,0.000000000,-0.785398000,0.000000000
1781155884.612439,,,,0.000000000,0.000000000,0.000000000,,,,,
1781155884.612497,,,,,,,1781155884.612373590,0.785398000,0.000000000,-0.785398000,0.000000000
1781155884.613286,,,,0.000000000,0.000000000,0.000000000,,,,,
1781155884.613349,,,,,,,1781155884.613190413,0.785398000,0.000000000,-0.785398000,0.000000000
1781155884.614183,,,,0.000000000,0.000000000,0.000000000,,,,,
1781155884.614224,,,,,,,1781155884.614118576,0.785398000,0.000000000,-0.785398000,0.000000000
1781155884.615165,,,,0.000000000,0.000000000,0.000000000,,,,,
1781155884.615248,,,,,,,1781155884.615126133,0.785398000,0.000000000,-0.785398000,0.000000000
1781155884.615961,,,,0.000000000,0.000000000,0.000000000,,,,,
1781155884.616084,,,,,,,1781155884.615926743,0.785398000,0.000000000,-0.785398000,0.000000000
1781155884.617033,,,,0.000000000,0.000000000,0.000000000,,,,,
1781155884.617091,,,,,,,1781155884.616971970,0.785398000,0.000000000,-0.785398000,0.000000000
1781155884.617884,,,,0.000000000,0.000000000,0.000000000,,,,,
1781155884.617963,,,,,,,1781155884.617844820,0.785398000,0.000000000,-0.785398000,0.000000000
1781155884.618697,,,,0.000000000,0.000000000,0.000000000,,,,,
1781155884.618734,,,,,,,1781155884.618666172,0.785398000,0.000000000,-0.785398000,0.000000000
1781155884.619692,,,,0.000000000,0.000000000,0.000000000,,,,,
1781155884.619730,,,,,,,1781155884.619631767,0.785398000,0.000000000,-0.785398000,0.000000000
1781155884.620733,,,,0.000000000,0.000000000,0.000000000,,,,,
1781155884.620789,,,,,,,1781155884.620660067,0.785398000,0.000000000,-0.785398000,0.000000000
1781155884.621482,,,,0.000000000,0.000000000,0.000000000,,,,,
1781155884.621519,,,,,,,1781155884.621412039,0.785398000,0.000000000,-0.785398000,0.000000000
1781155884.622506,,,,0.000000000,0.000000000,0.000000000,,,,,
1781155884.622542,,,,,,,1781155884.622440338,0.785398000,0.000000000,-0.785398000,0.000000000
1781155884.623320,,,,0.000000000,0.000000000,0.000000000,,,,,
1781155884.623409,,,,,,,1781155884.623292923,0.785398000,0.000000000,-0.785398000,0.000000000
1781155884.624373,,,,0.000000000,0.000000000,0.000000000,,,,,
1781155884.624454,,,,,,,1781155884.624324083,0.785398000,0.000000000,-0.785398000,0.000000000
1781155884.625301,,,,0.000000000,0.000000000,0.000000000,,,,,
1781155884.625334,,,,,,,1781155884.625161171,0.785398000,0.000000000,-0.785398000,0.000000000
1781155884.626181,,,,0.000000000,0.000000000,0.000000000,,,,,
1781155884.626204,,,,,,,1781155884.626116991,0.785398000,0.000000000,-0.785398000,0.000000000
1781155884.627121,,,,0.000000000,0.000000000,0.000000000,,,,,
1781155884.627140,,,,,,,1781155884.626984358,0.785398000,0.000000000,-0.785398000,0.000000000
1781155884.627948,,,,0.000000000,0.000000000,0.000000000,,,,,
1781155884.628005,,,,,,,1781155884.627858400,0.785398000,0.000000000,-0.785398000,0.000000000
1781155884.628900,,,,0.000000000,0.000000000,0.000000000,,,,,
1781155884.628954,,,,,,,1781155884.628846407,0.785398000,0.000000000,-0.785398000,0.000000000
1781155884.629765,,,,0.000000000,0.000000000,0.000000000,,,,,
1781155884.629795,,,,,,,1781155884.629702330,0.785398000,0.000000000,-0.785398000,0.000000000
1781155884.630665,,,,0.000000000,0.000000000,0.000000000,,,,,
1781155884.630724,,,,,,,1781155884.630607605,0.785398000,0.000000000,-0.785398000,0.000000000
1781155884.631614,,,,0.000000000,0.000000000,0.000000000,,,,,
1781155884.631715,,,,,,,1781155884.631584167,0.785398000,0.000000000,-0.785398000,0.000000000
1781155884.632531,,,,0.000000000,0.000000000,0.000000000,,,,,
1781155884.632591,,,,,,,1781155884.632470131,0.785398000,0.000000000,-0.785398000,0.000000000
1781155884.633535,,,,0.000000000,0.000000000,0.000000000,,,,,
1781155884.633589,,,,,,,1781155884.633480072,0.785398000,0.000000000,-0.785398000,0.000000000
1781155884.634320,,,,0.000000000,0.000000000,0.000000000,,,,,
1781155884.634352,,,,,,,1781155884.634275436,0.785398000,0.000000000,-0.785398000,0.000000000
1781155884.635230,,,,0.000000000,0.000000000,0.000000000,,,,,
1781155884.635287,,,,,,,1781155884.635190010,0.785398000,0.000000000,-0.785398000,0.000000000
1781155884.636292,,,,0.000000000,0.000000000,0.000000000,,,,,
1781155884.636307,,,,,,,1781155884.636161566,0.785398000,0.000000000,-0.785398000,0.000000000
1781155884.637327,,,,0.000000000,0.000000000,0.000000000,,,,,
1781155884.637430,,,,,,,1781155884.637231588,0.785398000,0.000000000,-0.785398000,0.000000000
1781155884.638035,,,,0.000000000,0.000000000,0.000000000,,,,,
1781155884.638185,,,,,,,1781155884.637985468,0.785398000,0.000000000,-0.785398000,0.000000000
1781155884.639007,,,,0.000000000,0.000000000,0.000000000,,,,,
1781155884.639047,,,,,,,1781155884.638925791,0.785398000,0.000000000,-0.785398000,0.000000000
1781155884.639874,,,,0.000000000,0.000000000,0.000000000,,,,,
1781155884.639913,,,,,,,1781155884.639827967,0.785398000,0.000000000,-0.785398000,0.000000000
1781155884.640719,,,,0.000000000,0.000000000,0.000000000,,,,,
1781155884.640889,,,,,,,1781155884.640684366,0.785398000,0.000000000,-0.785398000,0.000000000
1781155884.641804,,,,0.000000000,0.000000000,0.000000000,,,,,
1781155884.641862,,,,,,,1781155884.641714573,0.785398000,0.000000000,-0.785398000,0.000000000
1781155884.642681,,,,0.000000000,0.000000000,0.000000000,,,,,
1781155884.642707,,,,,,,1781155884.642600775,0.785398000,0.000000000,-0.785398000,0.000000000
1781155884.643507,,,,0.000000000,0.000000000,0.000000000,,,,,
1781155884.643566,,,,,,,1781155884.643455029,0.785398000,0.000000000,-0.785398000,0.000000000
1781155884.644488,,,,0.000000000,0.000000000,0.000000000,,,,,
1781155884.644529,,,,,,,1781155884.644409895,0.785398000,0.000000000,-0.785398000,0.000000000
1781155884.645365,,,,0.000000000,0.000000000,0.000000000,,,,,
1781155884.645449,,,,,,,1781155884.645322084,0.785398000,0.000000000,-0.785398000,0.000000000
1781155884.646212,,,,0.000000000,0.000000000,0.000000000,,,,,
1781155884.646361,,,,,,,1781155884.646186590,0.785398000,0.000000000,-0.785398000,0.000000000
1781155884.647130,,,,0.000000000,0.000000000,0.000000000,,,,,
1781155884.647210,,,,,,,1781155884.647091389,0.785398000,0.000000000,-0.785398000,0.000000000
1781155884.648019,,,,0.000000000,0.000000000,0.000000000,,,,,
1781155884.648145,,,,,,,1781155884.648008585,0.785398000,0.000000000,-0.785398000,0.000000000
1781155884.649016,,,,0.000000000,0.000000000,0.000000000,,,,,
1781155884.649184,,,,,,,1781155884.648985624,0.785398000,0.000000000,-0.785398000,0.000000000
1781155884.649986,,,,0.000000000,0.000000000,0.000000000,,,,,
1781155884.650104,,,,,,,1781155884.649950743,0.785398000,0.000000000,-0.785398000,0.000000000
1781155884.650906,,,,0.000000000,0.000000000,0.000000000,,,,,
1781155884.650939,,,,,,,1781155884.650827408,0.785398000,0.000000000,-0.785398000,0.000000000
1781155884.651716,,,,0.000000000,0.000000000,0.000000000,,,,,
1781155884.651809,,,,,,,1781155884.651680231,0.785398000,0.000000000,-0.785398000,0.000000000
1781155884.652653,,,,0.000000000,0.000000000,0.000000000,,,,,
1781155884.652748,,,,,,,1781155884.652602673,0.785398000,0.000000000,-0.785398000,0.000000000
1781155884.653628,,,,0.000000000,0.000000000,0.000000000,,,,,
1781155884.653754,,,,,,,1781155884.653596640,0.785398000,0.000000000,-0.785398000,0.000000000
1781155884.654457,,,,0.000000000,0.000000000,0.000000000,,,,,
1781155884.654601,,,,,,,1781155884.654420376,0.785398000,0.000000000,-0.785398000,0.000000000
1781155884.655553,,,,0.000000000,0.000000000,0.000000000,,,,,
1781155884.655575,,,,,,,1781155884.655476332,0.785398000,0.000000000,-0.785398000,0.000000000
1781155884.656399,,,,0.000000000,0.000000000,0.000000000,,,,,
1781155884.656493,,,,,,,1781155884.656360149,0.785398000,0.000000000,-0.785398000,0.000000000
1781155884.657227,,,,0.000000000,0.000000000,0.000000000,,,,,
1781155884.657354,,,,,,,1781155884.657177210,0.785398000,0.000000000,-0.785398000,0.000000000
1781155884.658228,,,,0.000000000,0.000000000,0.000000000,,,,,
1781155884.658248,,,,,,,1781155884.658160686,0.785398000,0.000000000,-0.785398000,0.000000000
1781155884.659209,,,,0.000000000,0.000000000,0.000000000,,,,,
1781155884.659288,,,,,,,1781155884.659105539,0.785398000,0.000000000,-0.785398000,0.000000000
1781155884.659980,,,,0.000000000,0.000000000,0.000000000,,,,,
1781155884.660064,,,,,,,1781155884.659915924,0.785398000,0.000000000,-0.785398000,0.000000000
1781155884.660962,,,,0.000000000,0.000000000,0.000000000,,,,,
1781155884.660999,,,,,,,1781155884.660876274,0.785398000,0.000000000,-0.785398000,0.000000000
1781155884.661918,,,,0.000000000,0.000000000,0.000000000,,,,,
1781155884.661996,,,,,,,1781155884.661812305,0.785398000,0.000000000,-0.785398000,0.000000000
1781155884.662799,,,,0.000000000,0.000000000,0.000000000,,,,,
1781155884.662913,,,,,,,1781155884.662729263,0.785398000,0.000000000,-0.785398000,0.000000000
1781155884.663685,,,,0.000000000,0.000000000,0.000000000,,,,,
1781155884.663709,,,,,,,1781155884.663620234,0.785398000,0.000000000,-0.785398000,0.000000000
1781155884.664596,,,,0.000000000,0.000000000,0.000000000,,,,,
1781155884.664748,,,,,,,1781155884.664561272,0.785398000,0.000000000,-0.785398000,0.000000000
1781155884.665491,,,,0.000000000,0.000000000,0.000000000,,,,,
1781155884.665649,,,,,,,1781155884.665461540,0.785398000,0.000000000,-0.785398000,0.000000000
1781155884.666473,,,,0.000000000,0.000000000,0.000000000,,,,,
1781155884.666563,,,,,,,1781155884.666438580,0.785398000,0.000000000,-0.785398000,0.000000000
1781155884.667385,,,,0.000000000,0.000000000,0.000000000,,,,,
1781155884.667451,,,,,,,1781155884.667311668,0.785398000,0.000000000,-0.785398000,0.000000000
1781155884.668365,,,,0.000000000,0.000000000,0.000000000,,,,,
1781155884.668411,,,,,,,1781155884.668278933,0.785398000,0.000000000,-0.785398000,0.000000000
1781155884.669371,,,,0.000000000,0.000000000,0.000000000,,,,,
1781155884.669395,,,,,,,1781155884.669218540,0.785398000,0.000000000,-0.785398000,0.000000000
1781155884.670131,,,,0.000000000,0.000000000,0.000000000,,,,,
1781155884.670189,,,,,,,1781155884.670054197,0.785398000,0.000000000,-0.785398000,0.000000000
1781155884.670992,,,,0.000000000,0.000000000,0.000000000,,,,,
1781155884.671130,,,,,,,1781155884.670958757,0.785398000,0.000000000,-0.785398000,0.000000000
1781155884.671952,,,,0.000000000,0.000000000,0.000000000,,,,,
1781155884.672044,,,,,,,1781155884.671917200,0.785398000,0.000000000,-0.785398000,0.000000000
1781155884.672960,,,,0.000000000,0.000000000,0.000000000,,,,,
1781155884.672980,,,,,,,1781155884.672850370,0.785398000,0.000000000,-0.785398000,0.000000000
1781155884.673816,,,,0.000000000,0.000000000,0.000000000,,,,,
1781155884.673842,,,,,,,1781155884.673763752,0.785398000,0.000000000,-0.785398000,0.000000000
1781155884.674668,,,,0.000000000,0.000000000,0.000000000,,,,,
1781155884.674702,,,,,,,1781155884.674618244,0.785398000,0.000000000,-0.785398000,0.000000000
1781155884.675655,,,,0.000000000,0.000000000,0.000000000,,,,,
1781155884.675714,,,,,,,1781155884.675597906,0.785398000,0.000000000,-0.785398000,0.000000000
1781155884.676462,,,,0.000000000,0.000000000,0.000000000,,,,,
1781155884.676579,,,,,,,1781155884.676430225,0.785398000,0.000000000,-0.785398000,0.000000000
1781155884.677444,,,,0.000000000,0.000000000,0.000000000,,,,,
1781155884.677517,,,,,,,1781155884.677411795,0.785398000,0.000000000,-0.785398000,0.000000000
1781155884.678301,,,,0.000000000,0.000000000,0.000000000,,,,,
1781155884.678378,,,,,,,1781155884.678261518,0.785398000,0.000000000,-0.785398000,0.000000000
1781155884.679205,,,,0.000000000,0.000000000,0.000000000,,,,,
1781155884.679285,,,,,,,1781155884.679169416,0.785398000,0.000000000,-0.785398000,0.000000000
1781155884.680170,,,,0.000000000,0.000000000,0.000000000,,,,,
1781155884.680228,,,,,,,1781155884.680093288,0.785398000,0.000000000,-0.785398000,0.000000000
1781155884.681088,,,,0.000000000,0.000000000,0.000000000,,,,,
1781155884.681182,,,,,,,1781155884.681058645,0.785398000,0.000000000,-0.785398000,0.000000000
1781155884.682067,,,,0.000000000,0.000000000,0.000000000,,,,,
1781155884.682132,,,,,,,1781155884.681997061,0.785398000,0.000000000,-0.785398000,0.000000000
1781155884.683009,,,,0.000000000,0.000000000,0.000000000,,,,,
1781155884.683032,,,,,,,1781155884.682902098,0.785398000,0.000000000,-0.785398000,0.000000000
1781155884.683974,,,,0.000000000,0.000000000,0.000000000,,,,,
1781155884.684099,,,,,,,1781155884.683928728,0.785398000,0.000000000,-0.785398000,0.000000000
1781155884.684773,,,,0.000000000,0.000000000,0.000000000,,,,,
1781155884.684842,,,,,,,1781155884.684678793,0.785398000,0.000000000,-0.785398000,0.000000000
1781155884.685713,,,,0.000000000,0.000000000,0.000000000,,,,,
1781155884.685779,,,,,,,1781155884.685646772,0.785398000,0.000000000,-0.785398000,0.000000000
1781155884.686553,,,,0.000000000,0.000000000,0.000000000,,,,,
1781155884.686620,,,,,,,1781155884.686510086,0.785398000,0.000000000,-0.785398000,0.000000000
1781155884.687483,,,,0.000000000,0.000000000,0.000000000,,,,,
1781155884.687543,,,,,,,1781155884.687428951,0.785398000,0.000000000,-0.785398000,0.000000000
1781155884.688403,,,,0.000000000,0.000000000,0.000000000,,,,,
1781155884.688517,,,,,,,1781155884.688359022,0.785398000,0.000000000,-0.785398000,0.000000000
1781155884.689410,,,,0.000000000,0.000000000,0.000000000,,,,,
1781155884.689471,,,,,,,1781155884.689349174,0.785398000,0.000000000,-0.785398000,0.000000000
1781155884.690218,,,,0.000000000,0.000000000,0.000000000,,,,,
1781155884.690283,,,,,,,1781155884.690180302,0.785398000,0.000000000,-0.785398000,0.000000000
1781155884.691158,,,,0.000000000,0.000000000,0.000000000,,,,,
1781155884.691222,,,,,,,1781155884.691084623,0.785398000,0.000000000,-0.785398000,0.000000000
1781155884.692148,,,,0.000000000,0.000000000,0.000000000,,,,,
1781155884.692262,,,,,,,1781155884.692111492,0.785398000,0.000000000,-0.785398000,0.000000000
1781155884.693004,,,,0.000000000,0.000000000,0.000000000,,,,,
1781155884.693102,,,,,,,1781155884.692944050,0.785398000,0.000000000,-0.785398000,0.000000000
1781155884.693880,,,,0.000000000,0.000000000,0.000000000,,,,,
1781155884.693966,,,,,,,1781155884.693839073,0.785398000,0.000000000,-0.785398000,0.000000000
1781155884.694848,,,,0.000000000,0.000000000,0.000000000,,,,,
1781155884.694915,,,,,,,1781155884.694812059,0.785398000,0.000000000,-0.785398000,0.000000000
1781155884.695771,,,,0.000000000,0.000000000,0.000000000,,,,,
1781155884.695789,,,,,,,1781155884.695676565,0.785398000,0.000000000,-0.785398000,0.000000000
1781155884.696772,,,,0.000000000,0.000000000,0.000000000,,,,,
1781155884.696834,,,,,,,1781155884.696705580,0.785398000,0.000000000,-0.785398000,0.000000000
1781155884.697641,,,,0.000000000,0.000000000,0.000000000,,,,,
1781155884.697697,,,,,,,1781155884.697584629,0.785398000,0.000000000,-0.785398000,0.000000000
1781155884.698488,,,,0.000000000,0.000000000,0.000000000,,,,,
1781155884.698543,,,,,,,1781155884.698435545,0.785398000,0.000000000,-0.785398000,0.000000000
1781155884.699621,,,,0.000000000,0.000000000,0.000000000,,,,,
1781155884.699711,,,,,,,1781155884.699589491,0.785398000,0.000000000,-0.785398000,0.000000000
1781155884.700354,,,,0.000000000,0.000000000,0.000000000,,,,,
1781155884.700426,,,,,,,1781155884.700294018,0.785398000,0.000000000,-0.785398000,0.000000000
1781155884.701374,,,,0.000000000,0.000000000,0.000000000,,,,,
1781155884.701414,,,,,,,1781155884.701308489,0.785398000,0.000000000,-0.785398000,0.000000000
1781155884.702278,,,,0.000000000,0.000000000,0.000000000,,,,,
1781155884.702299,,,,,,,1781155884.702135563,0.785398000,0.000000000,-0.785398000,0.000000000
1781155884.703189,,,,0.000000000,0.000000000,0.000000000,,,,,
1781155884.703196,,,,,,,1781155884.703087330,0.785398000,0.000000000,-0.785398000,0.000000000
1781155884.704023,,,,0.000000000,0.000000000,0.000000000,,,,,
1781155884.704142,,,,,,,1781155884.703971863,0.785398000,0.000000000,-0.785398000,0.000000000
1781155884.704968,,,,0.000000000,0.000000000,0.000000000,,,,,
1781155884.705025,,,,,,,1781155884.704907894,0.785398000,0.000000000,-0.785398000,0.000000000
1781155884.705798,,,,0.000000000,0.000000000,0.000000000,,,,,
1781155884.705820,,,,,,,1781155884.705754519,0.785398000,0.000000000,-0.785398000,0.000000000
1781155884.706865,,,,0.000000000,0.000000000,0.000000000,,,,,
1781155884.706920,,,,,,,1781155884.706809282,0.785398000,0.000000000,-0.785398000,0.000000000
1781155884.707647,,,,0.000000000,0.000000000,0.000000000,,,,,
1781155884.707685,,,,,,,1781155884.707603455,0.785398000,0.000000000,-0.785398000,0.000000000
1781155884.708660,,,,0.000000000,0.000000000,0.000000000,,,,,
1781155884.708755,,,,,,,1781155884.708626032,0.785398000,0.000000000,-0.785398000,0.000000000
1781155884.709489,,,,0.000000000,0.000000000,0.000000000,,,,,
1781155884.709544,,,,,,,1781155884.709433317,0.785398000,0.000000000,-0.785398000,0.000000000
1781155884.710389,,,,0.000000000,0.000000000,0.000000000,,,,,
1781155884.710473,,,,,,,1781155884.710351467,0.785398000,0.000000000,-0.785398000,0.000000000
1781155884.711441,,,,0.000000000,0.000000000,0.000000000,,,,,
1781155884.711450,,,,,,,1781155884.711354494,0.785398000,0.000000000,-0.785398000,0.000000000
1781155884.712385,,,,0.000000000,0.000000000,0.000000000,,,,,
1781155884.712442,,,,,,,1781155884.712294579,0.785398000,0.000000000,-0.785398000,0.000000000
1781155884.713143,,,,0.000000000,0.000000000,0.000000000,,,,,
1781155884.713195,,,,,,,1781155884.713078260,0.785398000,0.000000000,-0.785398000,0.000000000
1781155884.714168,,,,0.000000000,0.000000000,0.000000000,,,,,
1781155884.714206,,,,,,,1781155884.714067698,0.785398000,0.000000000,-0.785398000,0.000000000
1781155884.715011,,,,0.000000000,0.000000000,0.000000000,,,,,
1781155884.715066,,,,,,,1781155884.714952230,0.785398000,0.000000000,-0.785398000,0.000000000
1781155884.715984,,,,0.000000000,0.000000000,0.000000000,,,,,
1781155884.716028,,,,,,,1781155884.715942144,0.785398000,0.000000000,-0.785398000,0.000000000
1781155884.716895,,,,0.000000000,0.000000000,0.000000000,,,,,
1781155884.716933,,,,,,,1781155884.716819525,0.785398000,0.000000000,-0.785398000,0.000000000
1781155884.717799,,,,0.000000000,0.000000000,0.000000000,,,,,
1781155884.717852,,,,,,,1781155884.717741489,0.785398000,0.000000000,-0.785398000,0.000000000
1781155884.718636,,,,0.000000000,0.000000000,0.000000000,,,,,
1781155884.718667,,,,,,,1781155884.718594551,0.785398000,0.000000000,-0.785398000,0.000000000
1781155884.719737,,,,0.000000000,0.000000000,0.000000000,,,,,
1781155884.719756,,,,,,,1781155884.719634771,0.785398000,0.000000000,-0.785398000,0.000000000
1781155884.720543,,,,0.000000000,0.000000000,0.000000000,,,,,
1781155884.720668,,,,,,,1781155884.720493793,0.785398000,0.000000000,-0.785398000,0.000000000
1781155884.721426,,,,0.000000000,0.000000000,0.000000000,,,,,
1781155884.721511,,,,,,,1781155884.721398830,0.785398000,0.000000000,-0.785398000,0.000000000
1781155884.722354,,,,0.000000000,0.000000000,0.000000000,,,,,
1781155884.722411,,,,,,,1781155884.722301245,0.785398000,0.000000000,-0.785398000,0.000000000
1781155884.723226,,,,0.000000000,0.000000000,0.000000000,,,,,
1781155884.723282,,,,,,,1781155884.723173380,0.785398000,0.000000000,-0.785398000,0.000000000
1781155884.724127,,,,0.000000000,0.000000000,0.000000000,,,,,
1781155884.724157,,,,,,,1781155884.724085808,0.785398000,0.000000000,-0.785398000,0.000000000
1781155884.725151,,,,0.000000000,0.000000000,0.000000000,,,,,
1781155884.725170,,,,,,,1781155884.725080729,0.785398000,0.000000000,-0.785398000,0.000000000
1781155884.725994,,,,0.000000000,0.000000000,0.000000000,,,,,
1781155884.726223,,,,,,,1781155884.725954533,0.785398000,0.000000000,-0.785398000,0.000000000
1781155884.726931,,,,0.000000000,0.000000000,0.000000000,,,,,
1781155884.727007,,,,,,,1781155884.726857901,0.785398000,0.000000000,-0.785398000,0.000000000
1781155884.727819,,,,0.000000000,0.000000000,0.000000000,,,,,
1781155884.727925,,,,,,,1781155884.727799177,0.785398000,0.000000000,-0.785398000,0.000000000
1781155884.728850,,,,0.000000000,0.000000000,0.000000000,,,,,
1781155884.728882,,,,,,,1781155884.728732586,0.785398000,0.000000000,-0.785398000,0.000000000
1781155884.729739,,,,0.000000000,0.000000000,0.000000000,,,,,
1781155884.729795,,,,,,,1781155884.729655743,0.785398000,0.000000000,-0.785398000,0.000000000
1781155884.730553,,,,0.000000000,0.000000000,0.000000000,,,,,
1781155884.730592,,,,,,,1781155884.730507135,0.785398000,0.000000000,-0.785398000,0.000000000
1781155884.731536,,,,0.000000000,0.000000000,0.000000000,,,,,
1781155884.731672,,,,,,,1781155884.731498718,0.785398000,0.000000000,-0.785398000,0.000000000
1781155884.732546,,,,0.000000000,0.000000000,0.000000000,,,,,
1781155884.732593,,,,,,,1781155884.732466221,0.785398000,0.000000000,-0.785398000,0.000000000
1781155884.733332,,,,0.000000000,0.000000000,0.000000000,,,,,
1781155884.733368,,,,,,,1781155884.733277082,0.785398000,0.000000000,-0.785398000,0.000000000
1781155884.734226,,,,0.000000000,0.000000000,0.000000000,,,,,
1781155884.734257,,,,,,,1781155884.734184742,0.785398000,0.000000000,-0.785398000,0.000000000
1781155884.735135,,,,0.000000000,0.000000000,0.000000000,,,,,
1781155884.735232,,,,,,,1781155884.735084295,0.785398000,0.000000000,-0.785398000,0.000000000
1781155884.736217,,,,0.000000000,0.000000000,0.000000000,,,,,
1781155884.736257,,,,,,,1781155884.736117601,0.785398000,0.000000000,-0.785398000,0.000000000
1781155884.736955,,,,0.000000000,0.000000000,0.000000000,,,,,
1781155884.737089,,,,,,,1781155884.736917019,0.785398000,0.000000000,-0.785398000,0.000000000
1781155884.738017,,,,0.000000000,0.000000000,0.000000000,,,,,
1781155884.738036,,,,,,,1781155884.737912655,0.785398000,0.000000000,-0.785398000,0.000000000
1781155884.738918,,,,0.000000000,0.000000000,0.000000000,,,,,
1781155884.738974,,,,,,,1781155884.738861322,0.785398000,0.000000000,-0.785398000,0.000000000
1781155884.739728,,,,0.000000000,0.000000000,0.000000000,,,,,
1781155884.739776,,,,,,,1781155884.739685774,0.785398000,0.000000000,-0.785398000,0.000000000
1781155884.740714,,,,0.000000000,0.000000000,0.000000000,,,,,
1781155884.740732,,,,,,,1781155884.740661621,0.785398000,0.000000000,-0.785398000,0.000000000
1781155884.741667,,,,0.000000000,0.000000000,0.000000000,,,,,
1781155884.741706,,,,,,,1781155884.741596937,0.785398000,0.000000000,-0.785398000,0.000000000
1781155884.742523,,,,0.000000000,0.000000000,0.000000000,,,,,
1781155884.742640,,,,,,,1781155884.742480993,0.785398000,0.000000000,-0.785398000,0.000000000
1781155884.743476,,,,0.000000000,0.000000000,0.000000000,,,,,
1781155884.743554,,,,,,,1781155884.743431807,0.785398000,0.000000000,-0.785398000,0.000000000
1781155884.744407,,,,0.000000000,0.000000000,0.000000000,,,,,
1781155884.744461,,,,,,,1781155884.744349480,0.785398000,0.000000000,-0.785398000,0.000000000
1781155884.745252,,,,0.000000000,0.000000000,0.000000000,,,,,
1781155884.745331,,,,,,,1781155884.745202780,0.785398000,0.000000000,-0.785398000,0.000000000
1781155884.746332,,,,0.000000000,0.000000000,0.000000000,,,,,
1781155884.746504,,,,,,,1781155884.746261120,0.785398000,0.000000000,-0.785398000,0.000000000
1781155884.747198,,,,0.000000000,0.000000000,0.000000000,,,,,
1781155884.747222,,,,,,,1781155884.747135162,0.785398000,0.000000000,-0.785398000,0.000000000
1781155884.748124,,,,0.000000000,0.000000000,0.000000000,,,,,
1781155884.748225,,,,,,,1781155884.748059511,0.785398000,0.000000000,-0.785398000,0.000000000
1781155884.749086,,,,0.000000000,0.000000000,0.000000000,,,,,
1781155884.749117,,,,,,,1781155884.748991489,0.785398000,0.000000000,-0.785398000,0.000000000
1781155884.749926,,,,0.000000000,0.000000000,0.000000000,,,,,
1781155884.749965,,,,,,,1781155884.749826908,0.785398000,0.000000000,-0.785398000,0.000000000
1781155884.750763,,,,0.000000000,0.000000000,0.000000000,,,,,
1781155884.750909,,,,,,,1781155884.750752687,0.785398000,0.000000000,-0.785398000,0.000000000
1781155884.751679,,,,0.000000000,0.000000000,0.000000000,,,,,
1781155884.751736,,,,,,,1781155884.751619577,0.785398000,0.000000000,-0.785398000,0.000000000
1781155884.752614,,,,0.000000000,0.000000000,0.000000000,,,,,
1781155884.752653,,,,,,,1781155884.752528667,0.785398000,0.000000000,-0.785398000,0.000000000
1781155884.753489,,,,0.000000000,0.000000000,0.000000000,,,,,
1781155884.753546,,,,,,,1781155884.753432989,0.785398000,0.000000000,-0.785398000,0.000000000
1781155884.754429,,,,0.000000000,0.000000000,0.000000000,,,,,
1781155884.754473,,,,,,,1781155884.754385233,0.785398000,0.000000000,-0.785398000,0.000000000
1781155884.755347,,,,0.000000000,0.000000000,0.000000000,,,,,
1781155884.755488,,,,,,,1781155884.755321980,0.785398000,0.000000000,-0.785398000,0.000000000
1781155884.756224,,,,0.000000000,0.000000000,0.000000000,,,,,
1781155884.756303,,,,,,,1781155884.756177902,0.785398000,0.000000000,-0.785398000,0.000000000
1781155884.757180,,,,0.000000000,0.000000000,0.000000000,,,,,
1781155884.757303,,,,,,,1781155884.757140398,0.785398000,0.000000000,-0.785398000,0.000000000
1781155884.758148,,,,0.000000000,0.000000000,0.000000000,,,,,
1781155884.758235,,,,,,,1781155884.758106709,0.785398000,0.000000000,-0.785398000,0.000000000
1781155884.759067,,,,0.000000000,0.000000000,0.000000000,,,,,
1781155884.759127,,,,,,,1781155884.758975983,0.785398000,0.000000000,-0.785398000,0.000000000
1781155884.759992,,,,0.000000000,0.000000000,0.000000000,,,,,
1781155884.760020,,,,,,,1781155884.759897470,0.785398000,0.000000000,-0.785398000,0.000000000
1781155884.760869,,,,0.000000000,0.000000000,0.000000000,,,,,
1781155884.760918,,,,,,,1781155884.760815859,0.785398000,0.000000000,-0.785398000,0.000000000
1781155884.761887,,,,0.000000000,0.000000000,0.000000000,,,,,
1781155884.761937,,,,,,,1781155884.761830091,0.785398000,0.000000000,-0.785398000,0.000000000
1781155884.762772,,,,0.000000000,0.000000000,0.000000000,,,,,
1781155884.762804,,,,,,,1781155884.762698412,0.785398000,0.000000000,-0.785398000,0.000000000
1781155884.763732,,,,0.000000000,0.000000000,0.000000000,,,,,
1781155884.763780,,,,,,,1781155884.763603926,0.785398000,0.000000000,-0.785398000,0.000000000
1781155884.764687,,,,0.000000000,0.000000000,0.000000000,,,,,
1781155884.764712,,,,,,,1781155884.764545202,0.785398000,0.000000000,-0.785398000,0.000000000
1781155884.765536,,,,0.000000000,0.000000000,0.000000000,,,,,
1781155884.765613,,,,,,,1781155884.765492678,0.785398000,0.000000000,-0.785398000,0.000000000
1781155884.766486,,,,0.000000000,0.000000000,0.000000000,,,,,
1781155884.766518,,,,,,,1781155884.766437292,0.785398000,0.000000000,-0.785398000,0.000000000
1781155884.767426,,,,0.000000000,0.000000000,0.000000000,,,,,
1781155884.767468,,,,,,,1781155884.767304420,0.785398000,0.000000000,-0.785398000,0.000000000
1781155884.768223,,,,0.000000000,0.000000000,0.000000000,,,,,
1781155884.768263,,,,,,,1781155884.768111229,0.785398000,0.000000000,-0.785398000,0.000000000
1781155884.769111,,,,0.000000000,0.000000000,0.000000000,,,,,
1781155884.769140,,,,,,,1781155884.769026518,0.785398000,0.000000000,-0.785398000,0.000000000
1781155884.770045,,,,0.000000000,0.000000000,0.000000000,,,,,
1781155884.770197,,,,,,,1781155884.769994020,0.785398000,0.000000000,-0.785398000,0.000000000
1781155884.770941,,,,0.000000000,0.000000000,0.000000000,,,,,
1781155884.771005,,,,,,,1781155884.770876169,0.785398000,0.000000000,-0.785398000,0.000000000
1781155884.771883,,,,0.000000000,0.000000000,0.000000000,,,,,
1781155884.771983,,,,,,,1781155884.771835089,0.785398000,0.000000000,-0.785398000,0.000000000
1781155884.772841,,,,0.000000000,0.000000000,0.000000000,,,,,
1781155884.772941,,,,,,,1781155884.772756577,0.785398000,0.000000000,-0.785398000,0.000000000
1781155884.773662,,,,0.000000000,0.000000000,0.000000000,,,,,
1781155884.773774,,,,,,,1781155884.773597479,0.785398000,0.000000000,-0.785398000,0.000000000
1781155884.774682,,,,0.000000000,0.000000000,0.000000000,,,,,
1781155884.774722,,,,,,,1781155884.774597406,0.785398000,0.000000000,-0.785398000,0.000000000
1781155884.775607,,,,0.000000000,0.000000000,0.000000000,,,,,
1781155884.775667,,,,,,,1781155884.775504827,0.785398000,0.000000000,-0.785398000,0.000000000
1781155884.776520,,,,0.000000000,0.000000000,0.000000000,,,,,
1781155884.776541,,,,,,,1781155884.776402950,0.785398000,0.000000000,-0.785398000,0.000000000
1781155884.777484,,,,0.000000000,0.000000000,0.000000000,,,,,
1781155884.777551,,,,,,,1781155884.777416468,0.785398000,0.000000000,-0.785398000,0.000000000
1781155884.778390,,,,0.000000000,0.000000000,0.000000000,,,,,
1781155884.778416,,,,,,,1781155884.778312683,0.785398000,0.000000000,-0.785398000,0.000000000
1781155884.779332,,,,0.000000000,0.000000000,0.000000000,,,,,
1781155884.779357,,,,,,,1781155884.779153109,0.785398000,0.000000000,-0.785398000,0.000000000
1781155884.780167,,,,0.000000000,0.000000000,0.000000000,,,,,
1781155884.780204,,,,,,,1781155884.780084133,0.785398000,0.000000000,-0.785398000,0.000000000
1781155884.781016,,,,0.000000000,0.000000000,0.000000000,,,,,
1781155884.781123,,,,,,,1781155884.780951262,0.785398000,0.000000000,-0.785398000,0.000000000
1781155884.781984,,,,0.000000000,0.000000000,0.000000000,,,,,
1781155884.782022,,,,,,,1781155884.781867504,0.785398000,0.000000000,-0.785398000,0.000000000
1781155884.782915,,,,0.000000000,0.000000000,0.000000000,,,,,
1781155884.783180,,,,,,,1781155884.782865763,0.785398000,0.000000000,-0.785398000,0.000000000
1781155884.783764,,,,0.000000000,0.000000000,0.000000000,,,,,
1781155884.783852,,,,,,,1781155884.783726454,0.785398000,0.000000000,-0.785398000,0.000000000
1781155884.784664,,,,0.000000000,0.000000000,0.000000000,,,,,
1781155884.784783,,,,,,,1781155884.784629822,0.785398000,0.000000000,-0.785398000,0.000000000
1781155884.785672,,,,0.000000000,0.000000000,0.000000000,,,,,
1781155884.785788,,,,,,,1781155884.785613060,0.785398000,0.000000000,-0.785398000,0.000000000
1781155884.786508,,,,0.000000000,0.000000000,0.000000000,,,,,
1781155884.786684,,,,,,,1781155884.786492348,0.785398000,0.000000000,-0.785398000,0.000000000
1781155884.787393,,,,0.000000000,0.000000000,0.000000000,,,,,
1781155884.787490,,,,,,,1781155884.787360907,0.785398000,0.000000000,-0.785398000,0.000000000
1781155884.788473,,,,0.000000000,0.000000000,0.000000000,,,,,
1781155884.788519,,,,,,,1781155884.788384199,0.785398000,0.000000000,-0.785398000,0.000000000
1781155884.789294,,,,0.000000000,0.000000000,0.000000000,,,,,
1781155884.789393,,,,,,,1781155884.789239168,0.785398000,0.000000000,-0.785398000,0.000000000
1781155884.790323,,,,0.000000000,0.000000000,0.000000000,,,,,
1781155884.790402,,,,,,,1781155884.790234566,0.785398000,0.000000000,-0.785398000,0.000000000
1781155884.791198,,,,0.000000000,0.000000000,0.000000000,,,,,
1781155884.791307,,,,,,,1781155884.791148663,0.785398000,0.000000000,-0.785398000,0.000000000
1781155884.791997,,,,0.000000000,0.000000000,0.000000000,,,,,
1781155884.792145,,,,,,,1781155884.791949272,0.785398000,0.000000000,-0.785398000,0.000000000
1781155884.793021,,,,0.000000000,0.000000000,0.000000000,,,,,
1781155884.793045,,,,,,,1781155884.792930841,0.785398000,0.000000000,-0.785398000,0.000000000
1781155884.793971,,,,0.000000000,0.000000000,0.000000000,,,,,
1781155884.794034,,,,,,,1781155884.793867588,0.785398000,0.000000000,-0.785398000,0.000000000
1781155884.794804,,,,0.000000000,0.000000000,0.000000000,,,,,
1781155884.794902,,,,,,,1781155884.794756651,0.785398000,0.000000000,-0.785398000,0.000000000
1781155884.795658,,,,0.000000000,0.000000000,0.000000000,,,,,
1781155884.795718,,,,,,,1781155884.795611858,0.785398000,0.000000000,-0.785398000,0.000000000
1781155884.796644,,,,0.000000000,0.000000000,0.000000000,,,,,
1781155884.796676,,,,,,,1781155884.796596289,0.785398000,0.000000000,-0.785398000,0.000000000
1781155884.797458,,,,0.000000000,0.000000000,0.000000000,,,,,
1781155884.797557,,,,,,,1781155884.797432423,0.785398000,0.000000000,-0.785398000,0.000000000
1781155884.798453,,,,0.000000000,0.000000000,0.000000000,,,,,
1781155884.798498,,,,,,,1781155884.798357248,0.785398000,0.000000000,-0.785398000,0.000000000
1781155884.799383,,,,0.000000000,0.000000000,0.000000000,,,,,
1781155884.799478,,,,,,,1781155884.799347878,0.785398000,0.000000000,-0.785398000,0.000000000
1781155884.800272,,,,0.000000000,0.000000000,0.000000000,,,,,
1781155884.800379,,,,,,,1781155884.800232172,0.785398000,0.000000000,-0.785398000,0.000000000
1781155884.801192,,,,0.000000000,0.000000000,0.000000000,,,,,
1781155884.801258,,,,,,,1781155884.801094770,0.785398000,0.000000000,-0.785398000,0.000000000
1781155884.802156,,,,0.000000000,0.000000000,0.000000000,,,,,
1781155884.802198,,,,,,,1781155884.802063227,0.785398000,0.000000000,-0.785398000,0.000000000
1781155884.802948,,,,0.000000000,0.000000000,0.000000000,,,,,
1781155884.803033,,,,,,,1781155884.802931070,0.785398000,0.000000000,-0.785398000,0.000000000
1781155884.804056,,,,0.000000000,0.000000000,0.000000000,,,,,
1781155884.804097,,,,,,,1781155884.803951740,0.785398000,0.000000000,-0.785398000,0.000000000
1781155884.804861,,,,0.000000000,0.000000000,0.000000000,,,,,
1781155884.804907,,,,,,,1781155884.804755449,0.785398000,0.000000000,-0.785398000,0.000000000
1781155884.805822,,,,0.000000000,0.000000000,0.000000000,,,,,
1781155884.805844,,,,,,,1781155884.805765629,0.785398000,0.000000000,-0.785398000,0.000000000
1781155884.806686,,,,0.000000000,0.000000000,0.000000000,,,,,
1781155884.806850,,,,,,,1781155884.806668997,0.785398000,0.000000000,-0.785398000,0.000000000
1781155884.807756,,,,0.000000000,0.000000000,0.000000000,,,,,
1781155884.807826,,,,,,,1781155884.807636499,0.785398000,0.000000000,-0.785398000,0.000000000
1781155884.808558,,,,0.000000000,0.000000000,0.000000000,,,,,
1781155884.808625,,,,,,,1781155884.808482647,0.785398000,0.000000000,-0.785398000,0.000000000
1781155884.809467,,,,0.000000000,0.000000000,0.000000000,,,,,
1781155884.809555,,,,,,,1781155884.809418917,0.785398000,0.000000000,-0.785398000,0.000000000
1781155884.810382,,,,0.000000000,0.000000000,0.000000000,,,,,
1781155884.810468,,,,,,,1781155884.810337305,0.785398000,0.000000000,-0.785398000,0.000000000
1781155884.811202,,,,0.000000000,0.000000000,0.000000000,,,,,
1781155884.811296,,,,,,,1781155884.811170340,0.785398000,0.000000000,-0.785398000,0.000000000
1781155884.812195,,,,0.000000000,0.000000000,0.000000000,,,,,
1781155884.812278,,,,,,,1781155884.812130213,0.785398000,0.000000000,-0.785398000,0.000000000
1781155884.813098,,,,0.000000000,0.000000000,0.000000000,,,,,
1781155884.813198,,,,,,,1781155884.813054562,0.785398000,0.000000000,-0.785398000,0.000000000
1781155884.813962,,,,0.000000000,0.000000000,0.000000000,,,,,
1781155884.814132,,,,,,,1781155884.813925028,0.785398000,0.000000000,-0.785398000,0.000000000
1781155884.814958,,,,0.000000000,0.000000000,0.000000000,,,,,
1781155884.815021,,,,,,,1781155884.814898491,0.785398000,0.000000000,-0.785398000,0.000000000
1781155884.815837,,,,0.000000000,0.000000000,0.000000000,,,,,
1781155884.815920,,,,,,,1781155884.815796852,0.785398000,0.000000000,-0.785398000,0.000000000
1781155884.816721,,,,0.000000000,0.000000000,0.000000000,,,,,
1781155884.816843,,,,,,,1781155884.816686630,0.785398000,0.000000000,-0.785398000,0.000000000
1781155884.817665,,,,0.000000000,0.000000000,0.000000000,,,,,
1781155884.817723,,,,,,,1781155884.817625999,0.785398000,0.000000000,-0.785398000,0.000000000
1781155884.818614,,,,0.000000000,0.000000000,0.000000000,,,,,
1781155884.818671,,,,,,,1781155884.818549156,0.785398000,0.000000000,-0.785398000,0.000000000
1781155884.819752,,,,0.000000000,0.000000000,0.000000000,,,,,
1781155884.819828,,,,,,,1781155884.819657087,0.785398000,0.000000000,-0.785398000,0.000000000
1781155884.820580,,,,0.000000000,0.000000000,0.000000000,,,,,
1781155884.820647,,,,,,,1781155884.820505381,0.785398000,0.000000000,-0.785398000,0.000000000
1781155884.821584,,,,0.000000000,0.000000000,0.000000000,,,,,
1781155884.821660,,,,,,,1781155884.821408033,0.785398000,0.000000000,-0.785398000,0.000000000
1781155884.822511,,,,0.000000000,0.000000000,0.000000000,,,,,
1781155884.822577,,,,,,,1781155884.822426319,0.785398000,0.000000000,-0.785398000,0.000000000
1781155884.823345,,,,0.000000000,0.000000000,0.000000000,,,,,
1781155884.823421,,,,,,,1781155884.823205709,0.785398000,0.000000000,-0.785398000,0.000000000
1781155884.824336,,,,0.000000000,0.000000000,0.000000000,,,,,
1781155884.824455,,,,,,,1781155884.824220181,0.785398000,0.000000000,-0.785398000,0.000000000
1781155884.825139,,,,0.000000000,0.000000000,0.000000000,,,,,
1781155884.825301,,,,,,,1781155884.825082302,0.785398000,0.000000000,-0.785398000,0.000000000
1781155884.826156,,,,0.000000000,0.000000000,0.000000000,,,,,
1781155884.826219,,,,,,,1781155884.826025724,0.785398000,0.000000000,-0.785398000,0.000000000
1781155884.827027,,,,0.000000000,0.000000000,0.000000000,,,,,
1781155884.827111,,,,,,,1781155884.826931715,0.785398000,0.000000000,-0.785398000,0.000000000
1781155884.827886,,,,0.000000000,0.000000000,0.000000000,,,,,
1781155884.828023,,,,,,,1781155884.827838421,0.785398000,0.000000000,-0.785398000,0.000000000
1781155884.828868,,,,0.000000000,0.000000000,0.000000000,,,,,
1781155884.828902,,,,,,,1781155884.828731060,0.785398000,0.000000000,-0.785398000,0.000000000
1781155884.829722,,,,0.000000000,0.000000000,0.000000000,,,,,
1781155884.829823,,,,,,,1781155884.829661846,0.785398000,0.000000000,-0.785398000,0.000000000
1781155884.830641,,,,0.000000000,0.000000000,0.000000000,,,,,
1781155884.830811,,,,,,,1781155884.830573320,0.785398000,0.000000000,-0.785398000,0.000000000
1781155884.831543,,,,0.000000000,0.000000000,0.000000000,,,,,
1781155884.831780,,,,,,,1781155884.831494808,0.785398000,0.000000000,-0.785398000,0.000000000
1781155884.832509,,,,0.000000000,0.000000000,0.000000000,,,,,
1781155884.832630,,,,,,,1781155884.832445145,0.785398000,0.000000000,-0.785398000,0.000000000
1781155884.833322,,,,0.000000000,0.000000000,0.000000000,,,,,
1781155884.833421,,,,,,,1781155884.833276510,0.785398000,0.000000000,-0.785398000,0.000000000
1781155884.834347,,,,0.000000000,0.000000000,0.000000000,,,,,
1781155884.834468,,,,,,,1781155884.834197760,0.785398000,0.000000000,-0.785398000,0.000000000
1781155884.835258,,,,0.000000000,0.000000000,0.000000000,,,,,
1781155884.835318,,,,,,,1781155884.835176706,0.785398000,0.000000000,-0.785398000,0.000000000
1781155884.836192,,,,0.000000000,0.000000000,0.000000000,,,,,
1781155884.836217,,,,,,,1781155884.835998535,0.785398000,0.000000000,-0.785398000,0.000000000
1781155884.837088,,,,0.000000000,0.000000000,0.000000000,,,,,
1781155884.837240,,,,,,,1781155884.837062120,0.785398000,0.000000000,-0.785398000,0.000000000
1781155884.837849,,,,0.000000000,0.000000000,0.000000000,,,,,
1781155884.837891,,,,,,,1781155884.837755919,0.785398000,0.000000000,-0.785398000,0.000000000
1781155884.838781,,,,0.000000000,0.000000000,0.000000000,,,,,
1781155884.838842,,,,,,,1781155884.838711977,0.785398000,0.000000000,-0.785398000,0.000000000
1781155884.839772,,,,0.000000000,0.000000000,0.000000000,,,,,
1781155884.839814,,,,,,,1781155884.839688540,0.785398000,0.000000000,-0.785398000,0.000000000
1781155884.840609,,,,0.000000000,0.000000000,0.000000000,,,,,
1781155884.840698,,,,,,,1781155884.840569019,0.785398000,0.000000000,-0.785398000,0.000000000
1781155884.841505,,,,0.000000000,0.000000000,0.000000000,,,,,
1781155884.841656,,,,,,,1781155884.841468573,0.785398000,0.000000000,-0.785398000,0.000000000
1781155884.842391,,,,0.000000000,0.000000000,0.000000000,,,,,
1781155884.842495,,,,,,,1781155884.842365026,0.785398000,0.000000000,-0.785398000,0.000000000
1781155884.843398,,,,0.000000000,0.000000000,0.000000000,,,,,
1781155884.843459,,,,,,,1781155884.843342543,0.785398000,0.000000000,-0.785398000,0.000000000
1781155884.844283,,,,0.000000000,0.000000000,0.000000000,,,,,
1781155884.844320,,,,,,,1781155884.844233751,0.785398000,0.000000000,-0.785398000,0.000000000
1781155884.845186,,,,0.000000000,0.000000000,0.000000000,,,,,
1781155884.845248,,,,,,,1781155884.845132113,0.785398000,0.000000000,-0.785398000,0.000000000
1781155884.846161,,,,0.000000000,0.000000000,0.000000000,,,,,
1781155884.846219,,,,,,,1781155884.846096277,0.785398000,0.000000000,-0.785398000,0.000000000
1781155884.847019,,,,0.000000000,0.000000000,0.000000000,,,,,
1781155884.847078,,,,,,,1781155884.846969128,0.785398000,0.000000000,-0.785398000,0.000000000
1781155884.848044,,,,0.000000000,0.000000000,0.000000000,,,,,
1781155884.848129,,,,,,,1781155884.847993374,0.785398000,0.000000000,-0.785398000,0.000000000
1781155884.848872,,,,0.000000000,0.000000000,0.000000000,,,,,
1781155884.848918,,,,,,,1781155884.848812580,0.785398000,0.000000000,-0.785398000,0.000000000
1781155884.849952,,,,0.000000000,0.000000000,0.000000000,,,,,
1781155884.850134,,,,,,,1781155884.849877834,0.785398000,0.000000000,-0.785398000,0.000000000
1781155884.850883,,,,0.000000000,0.000000000,0.000000000,,,,,
1781155884.850961,,,,,,,1781155884.850805998,0.785398000,0.000000000,-0.785398000,0.000000000
1781155884.851752,,,,0.000000000,0.000000000,0.000000000,,,,,
1781155884.851909,,,,,,,1781155884.851681232,0.785398000,0.000000000,-0.785398000,0.000000000
1781155884.852707,,,,0.000000000,0.000000000,0.000000000,,,,,
1781155884.852879,,,,,,,1781155884.852617025,0.785398000,0.000000000,-0.785398000,0.000000000
1781155884.853638,,,,0.000000000,0.000000000,0.000000000,,,,,
1781155884.853824,,,,,,,1781155884.853572130,0.785398000,0.000000000,-0.785398000,0.000000000
1781155884.854565,,,,0.000000000,0.000000000,0.000000000,,,,,
1781155884.854650,,,,,,,1781155884.854473591,0.785398000,0.000000000,-0.785398000,0.000000000
1781155884.855407,,,,0.000000000,0.000000000,0.000000000,,,,,
1781155884.855570,,,,,,,1781155884.855336428,0.785398000,0.000000000,-0.785398000,0.000000000
1781155884.856363,,,,0.000000000,0.000000000,0.000000000,,,,,
1781155884.856432,,,,,,,1781155884.856220484,0.785398000,0.000000000,-0.785398000,0.000000000
1781155884.857344,,,,0.000000000,0.000000000,0.000000000,,,,,
1781155884.857555,,,,,,,1781155884.857290983,0.785398000,0.000000000,-0.785398000,0.000000000
1781155884.858185,,,,0.000000000,0.000000000,0.000000000,,,,,
1781155884.858382,,,,,,,1781155884.858075619,0.785398000,0.000000000,-0.785398000,0.000000000
1781155884.859035,,,,0.000000000,0.000000000,0.000000000,,,,,
1781155884.859109,,,,,,,1781155884.858958721,0.785398000,0.000000000,-0.785398000,0.000000000
1781155884.859968,,,,0.000000000,0.000000000,0.000000000,,,,,
1781155884.860039,,,,,,,1781155884.859865427,0.785398000,0.000000000,-0.785398000,0.000000000
1781155884.860877,,,,0.000000000,0.000000000,0.000000000,,,,,
1781155884.860942,,,,,,,1781155884.860797405,0.785398000,0.000000000,-0.785398000,0.000000000
1781155884.861799,,,,0.000000000,0.000000000,0.000000000,,,,,
1781155884.861847,,,,,,,1781155884.861678839,0.785398000,0.000000000,-0.785398000,0.000000000
1781155884.862834,,,,0.000000000,0.000000000,0.000000000,,,,,
1781155884.862964,,,,,,,1781155884.862762690,0.785398000,0.000000000,-0.785398000,0.000000000
1781155884.863649,,,,0.000000000,0.000000000,0.000000000,,,,,
1781155884.863883,,,,,,,1781155884.863621950,0.785398000,0.000000000,-0.785398000,0.000000000
1781155884.864614,,,,0.000000000,0.000000000,0.000000000,,,,,
1781155884.864692,,,,,,,1781155884.864525318,0.785398000,0.000000000,-0.785398000,0.000000000
1781155884.865534,,,,0.000000000,0.000000000,0.000000000,,,,,
1781155884.865649,,,,,,,1781155884.865436792,0.785398000,0.000000000,-0.785398000,0.000000000
1781155884.866460,,,,0.000000000,0.000000000,0.000000000,,,,,
1781155884.866661,,,,,,,1781155884.866403818,0.785398000,0.000000000,-0.785398000,0.000000000
1781155884.867369,,,,0.000000000,0.000000000,0.000000000,,,,,
1781155884.867438,,,,,,,1781155884.867263556,0.785398000,0.000000000,-0.785398000,0.000000000
1781155884.868283,,,,0.000000000,0.000000000,0.000000000,,,,,
1781155884.868405,,,,,,,1781155884.868205070,0.785398000,0.000000000,-0.785398000,0.000000000
1781155884.869150,,,,0.000000000,0.000000000,0.000000000,,,,,
1781155884.869296,,,,,,,1781155884.869069338,0.785398000,0.000000000,-0.785398000,0.000000000
1781155884.870130,,,,0.000000000,0.000000000,0.000000000,,,,,
1781155884.870198,,,,,,,1781155884.869996309,0.785398000,0.000000000,-0.785398000,0.000000000
1781155884.871079,,,,0.000000000,0.000000000,0.000000000,,,,,
1781155884.871332,,,,,,,1781155884.871038437,0.785398000,0.000000000,-0.785398000,0.000000000
1781155884.871932,,,,0.000000000,0.000000000,0.000000000,,,,,
1781155884.872133,,,,,,,1781155884.871869802,0.785398000,0.000000000,-0.785398000,0.000000000
1781155884.872756,,,,0.000000000,0.000000000,0.000000000,,,,,
1781155884.872818,,,,,,,1781155884.872686148,0.785398000,0.000000000,-0.785398000,0.000000000
1781155884.873703,,,,0.000000000,0.000000000,0.000000000,,,,,
1781155884.873761,,,,,,,1781155884.873652458,0.785398000,0.000000000,-0.785398000,0.000000000
1781155884.874620,,,,0.000000000,0.000000000,0.000000000,,,,,
1781155884.874696,,,,,,,1781155884.874541759,0.785398000,0.000000000,-0.785398000,0.000000000
1781155884.875506,,,,0.000000000,0.000000000,0.000000000,,,,,
1781155884.875566,,,,,,,1781155884.875437021,0.785398000,0.000000000,-0.785398000,0.000000000
1781155884.876476,,,,0.000000000,0.000000000,0.000000000,,,,,
1781155884.876543,,,,,,,1781155884.876404285,0.785398000,0.000000000,-0.785398000,0.000000000
1781155884.877361,,,,0.000000000,0.000000000,0.000000000,,,,,
1781155884.877422,,,,,,,1781155884.877267361,0.785398000,0.000000000,-0.785398000,0.000000000
1781155884.878281,,,,0.000000000,0.000000000,0.000000000,,,,,
1781155884.878393,,,,,,,1781155884.878230095,0.785398000,0.000000000,-0.785398000,0.000000000
1781155884.879222,,,,0.000000000,0.000000000,0.000000000,,,,,
1781155884.879286,,,,,,,1781155884.879146814,0.785398000,0.000000000,-0.785398000,0.000000000
1781155884.880104,,,,0.000000000,0.000000000,0.000000000,,,,,
1781155884.880300,,,,,,,1781155884.880040407,0.785398000,0.000000000,-0.785398000,0.000000000
1781155884.881082,,,,0.000000000,0.000000000,0.000000000,,,,,
1781155884.881150,,,,,,,1781155884.880997419,0.785398000,0.000000000,-0.785398000,0.000000000
1781155884.881952,,,,0.000000000,0.000000000,0.000000000,,,,,
1781155884.882018,,,,,,,1781155884.881868839,0.785398000,0.000000000,-0.785398000,0.000000000
1781155884.882981,,,,0.000000000,0.000000000,0.000000000,,,,,
1781155884.883037,,,,,,,1781155884.882913351,0.785398000,0.000000000,-0.785398000,0.000000000
1781155884.883744,,,,0.000000000,0.000000000,0.000000000,,,,,
1781155884.883767,,,,,,,1781155884.883637667,0.785398000,0.000000000,-0.785398000,0.000000000
1781155884.884657,,,,0.000000000,0.000000000,0.000000000,,,,,
1781155884.884739,,,,,,,1781155884.884630203,0.785398000,0.000000000,-0.785398000,0.000000000
1781155884.885601,,,,0.000000000,0.000000000,0.000000000,,,,,
1781155884.885741,,,,,,,1781155884.885532618,0.785398000,0.000000000,-0.785398000,0.000000000
1781155884.886539,,,,0.000000000,0.000000000,0.000000000,,,,,
1781155884.886595,,,,,,,1781155884.886472225,0.785398000,0.000000000,-0.785398000,0.000000000
1781155884.887415,,,,0.000000000,0.000000000,0.000000000,,,,,
1781155884.887468,,,,,,,1781155884.887365580,0.785398000,0.000000000,-0.785398000,0.000000000
1781155884.888256,,,,0.000000000,0.000000000,0.000000000,,,,,
1781155884.888299,,,,,,,1781155884.888211250,0.785398000,0.000000000,-0.785398000,0.000000000
1781155884.889225,,,,0.000000000,0.000000000,0.000000000,,,,,
1781155884.889317,,,,,,,1781155884.889177084,0.785398000,0.000000000,-0.785398000,0.000000000
1781155884.890108,,,,0.000000000,0.000000000,0.000000000,,,,,
1781155884.890144,,,,,,,1781155884.890049219,0.785398000,0.000000000,-0.785398000,0.000000000
1781155884.890976,,,,0.000000000,0.000000000,0.000000000,,,,,
1781155884.891129,,,,,,,1781155884.890942335,0.785398000,0.000000000,-0.785398000,0.000000000
1781155884.891952,,,,0.000000000,0.000000000,0.000000000,,,,,
1781155884.892033,,,,,,,1781155884.891901970,0.785398000,0.000000000,-0.785398000,0.000000000
1781155884.892991,,,,0.000000000,0.000000000,0.000000000,,,,,
1781155884.893017,,,,,,,1781155884.892924070,0.785398000,0.000000000,-0.785398000,0.000000000
1781155884.893774,,,,0.000000000,0.000000000,0.000000000,,,,,
1781155884.893921,,,,,,,1781155884.893724442,0.785398000,0.000000000,-0.785398000,0.000000000
1781155884.894732,,,,0.000000000,0.000000000,0.000000000,,,,,
1781155884.894801,,,,,,,1781155884.894648552,0.785398000,0.000000000,-0.785398000,0.000000000
1781155884.895908,,,,0.000000000,0.000000000,0.000000000,,,,,
1781155884.896148,,,,,,,1781155884.895867348,0.785398000,0.000000000,-0.785398000,0.000000000
1781155884.896650,,,,0.000000000,0.000000000,0.000000000,,,,,
1781155884.896716,,,,,,,1781155884.896575212,0.785398000,0.000000000,-0.785398000,0.000000000
1781155884.897688,,,,0.000000000,0.000000000,0.000000000,,,,,
1781155884.897737,,,,,,,1781155884.897568464,0.785398000,0.000000000,-0.785398000,0.000000000
1781155884.898470,,,,0.000000000,0.000000000,0.000000000,,,,,
1781155884.898556,,,,,,,1781155884.898402452,0.785398000,0.000000000,-0.785398000,0.000000000
1781155884.899290,,,,0.000000000,0.000000000,0.000000000,,,,,
1781155884.899333,,,,,,,1781155884.899198532,0.785398000,0.000000000,-0.785398000,0.000000000
1781155884.900323,,,,0.000000000,0.000000000,0.000000000,,,,,
1781155884.900348,,,,,,,1781155884.900184393,0.785398000,0.000000000,-0.785398000,0.000000000
1781155884.901245,,,,0.000000000,0.000000000,0.000000000,,,,,
1781155884.901346,,,,,,,1781155884.901170492,0.785398000,0.000000000,-0.785398000,0.000000000
1781155884.902075,,,,0.000000000,0.000000000,0.000000000,,,,,
1781155884.902264,,,,,,,1781155884.902042627,0.785398000,0.000000000,-0.785398000,0.000000000
1781155884.902991,,,,0.000000000,0.000000000,0.000000000,,,,,
1781155884.903034,,,,,,,1781155884.902886868,0.785398000,0.000000000,-0.785398000,0.000000000
1781155884.903881,,,,0.000000000,0.000000000,0.000000000,,,,,
1781155884.903943,,,,,,,1781155884.903818607,0.785398000,0.000000000,-0.785398000,0.000000000
1781155884.904758,,,,0.000000000,0.000000000,0.000000000,,,,,
1781155884.904819,,,,,,,1781155884.904695272,0.785398000,0.000000000,-0.785398000,0.000000000
1781155884.905653,,,,0.000000000,0.000000000,0.000000000,,,,,
1781155884.905739,,,,,,,1781155884.905610800,0.785398000,0.000000000,-0.785398000,0.000000000
1781155884.906597,,,,0.000000000,0.000000000,0.000000000,,,,,
1781155884.906660,,,,,,,1781155884.906532288,0.785398000,0.000000000,-0.785398000,0.000000000
1781155884.907548,,,,0.000000000,0.000000000,0.000000000,,,,,
1781155884.907609,,,,,,,1781155884.907452822,0.785398000,0.000000000,-0.785398000,0.000000000
1781155884.908454,,,,0.000000000,0.000000000,0.000000000,,,,,
1781155884.908519,,,,,,,1781155884.908409595,0.785398000,0.000000000,-0.785398000,0.000000000
1781155884.909348,,,,0.000000000,0.000000000,0.000000000,,,,,
